!!!!SEGMENT: pl-cz--iii-560--001-005_raszek-waclaw--missa-in-d-credo.krn
!!!cenid: 17xx:1051
!!!COM: Raszek, Wacław
!!!COM-rismID: pe30020314
!!!CDT: <1848->1848
!!!CNT:
!!!OPR: Missa in D
!!!OTL: Credo
!!!OMV: 005
!!!PDT:
!!!AGN: Sacred; Mass
!!!YEC: Copyright 2022 Narodowy Instytut Fryderyka Chopina (https://polishscores.org)
!!!YEM: License CC-BY-4.0 (https://creativecommons.org/licenses/by/4.0)
!!!SMS-siglum: PL-CZ
!!!SMS-shelfmark: III-560
!!!SMS-shelfwork: 001-005 M
!!!SMS-variant:
!!!SMS-altvar:
!!!NIFC-rismSourceID: 300001046
!!!NIFC-rismChildID: 300001046
!!!NIFC-islandoraID: pl-cz:39086
!!!URL-pdf-islandora: https://repozytorium.nifc.pl/islandora/object/pl-cz%3A39086/datastream/PDF/view
!!!URL-scan: https://polish.musicsources.pl/pl/lokalizacje/galeria/rekopisy/6950/1 @EN{Scan on Polish Music Sources Website} @PL{Skany w portalu Dziedzictwo Muzyki Polskiej w otwartym dostępie}
!!!IIIF:
!!!ONB-nifc: UWAGA: części Mszy: Kyrie, Gloria, Domine Deus, Cum Sancto spiritu, Credo, Et incarnatus, Et resurrexit, Sanctus, Pleni, Benedictus, Agnus Dei, Dona nobis
!!!AIN: 1 alto 1 bass 2 cor 1 flt 2 oboe 1 organ 1 soprn 1 tenor 1 viola 2 violn
!!!OMD:
!!!OMD-mod: Allegro
!!!key: D
**kern	**dynam	**kern	**dynam	**kern	**dynam	**kern	**dynam	**kern	**text	**kern	**text	**kern	**text	**kern	**text	**kern	**kern	**kern	**kern	**kern
*	*	*group4	*	*group4	*	*group4	*	*group3	*	*group3	*	*group3	*	*group3	*	*group2	*group2	*group1	*group1	*group1
*part13	*	*part12	*	*part11	*	*part10	*	*part9	*	*part8	*	*part7	*	*part6	*	*part5	*part4	*part3	*part2	*part1
*staff13	*	*staff12	*	*staff11	*	*staff10	*	*staff9	*	*staff8	*	*staff7	*	*staff6	*	*staff5	*staff4	*staff3	*staff2	*staff1
*I"Organo.	*	*I"Alto Viola Obligat	*	*I"Violino Secundo	*	*I"Violino Primo.	*	*I"Baſſo.	*	*I"Tenore.	*	*I"Alto.	*	*I"Canto.	*	*I"Corno 2do in D#	*I"Corno 1mo in D#	*I"Oboe Secondo	*I"Oboe Primo	*I"Flauto Traverso
*mI"Organo	*	*mI"Viola	*	*mI"Violino II	*	*mI"Violino I	*	*mI"Basso	*	*mI"Tenore	*	*mI"Alto	*	*mI"Soprano	*	*mI"Corno II in D	*mI"Corno I in D	*mI"Oboe II	*mI"Oboe I	*mI"Flauto
*I'org	*	*I'vla	*	*I'vl 2	*	*I'vl 1	*	*I'B	*	*I'T	*	*I'A	*	*I'S	*	*I'cor 2 in D#	*I'cor 1 in D#	*I'ob 2	*I'ob 1	*I'fl
*	*	*	*	*	*	*	*	*	*	*	*	*	*	*	*	*mI'cor 2 in D	*mI'cor 1 in D	*	*	*
*Iorgan	*	*Iviola	*	*Ivioln	*	*Ivioln	*	*Ibass	*	*Itenor	*	*Ialto	*	*Isoprn	*	*Icor	*Icor	*Ioboe	*Ioboe	*Iflt
*ICklav	*	*ICstr	*	*ICstr	*	*ICstr	*	*ICvox	*	*ICvox	*	*ICvox	*	*ICvox	*	*ICbras	*ICbras	*ICww	*ICww	*ICww
*IGcont	*	*	*	*	*	*	*	*	*	*	*	*	*	*	*	*	*	*	*	*
*	*	*	*	*	*	*	*	*	*	*	*	*	*	*	*	*	*	*	*	*tacet
*clefF4	*	*clefC3	*	*clefG2	*	*clefG2	*	*clefF4	*	*clefC4	*	*clefC3	*	*clefC1	*	*clefG2	*clefG	*clefG2	*clefG2	*
*	*	*	*	*	*	*	*	*	*	*mclefGv2	*	*mclefG2	*	*mclefG2	*	*	*	*	*	*
*	*	*	*	*	*	*	*	*	*	*	*	*	*	*	*	*ITrd-1c-2	*ITrd-1c-2	*	*	*
*k[f#c#]	*	*k[f#c#]	*	*k[f#c#]	*	*k[f#c#]	*	*k[f#c#]	*	*k[f#c#]	*	*k[f#c#]	*	*k[f#c#]	*	*k[f#c#]	*k[f#c#]	*k[f#c#]	*k[f#c#]	*
*D:	*	*D:	*	*D:	*	*D:	*	*D:	*	*D:	*	*D:	*	*D:	*	*	*	*D:	*D:	*
*M4/4	*	*M4/4	*	*M4/4	*	*M4/4	*	*M4/4	*	*M4/4	*	*M4/4	*	*M4/4	*	*M4/4	*M4/4	*M4/4	*M4/4	*
*met(c)	*	*met(C.)	*	*met(C.)	*	*met(c)	*	*met(c)	*	*met(c)	*	*met(c)	*	*met(c)	*	*met(C.)	*met(C.)	*met(C.)	*met(C.)	*
*mmet(c)	*	*mmet(c)	*	*mmet(c)	*	*mmet(c)	*	*mmet(c)	*	*mmet(c)	*	*mmet(c)	*	*mmet(c)	*	*mmet(c)	*mmet(c)	*mmet(c)	*mmet(c)	*
=1	=1	=1	=1	=1	=1	=1	=1	=1	=1	=1	=1	=1	=1	=1	=1	=1	=1	=1	=1	=1
!!LO:TX:a:t= :mod=Tutti
!LO:TX:i:a:t=Tutti.:mod=	!	!	!	!	!	!	!	!	!	!	!	!	!	!LO:TX:a:i:t=allo&colon;:mod=	!	!	!	!	!	!
!LO:TX:a:i:t=allo:mod=	!	!LO:TX:a:i:t=allo:mod=	!	!LO:TX:a:i:t=allo.:mod=	!	!LO:TX:a:i:t=Moderato Allegro:mod=	!	!LO:TX:a:i:t=allo:mod=	!	!LO:TX:a:i:t=Allo.:mod=	!	!LO:TX:a:i:t=Allo.:mod=	!	!LO:TX:t=P:problem=kolejność znaków f#cc#:mod=	!	!LO:TX:a:i:t=allo:mod=	!LO:TX:a:i:t=allo:mod=	!LO:TX:a:i:t=allo:mod=	!LO:TX:a:i:t=allo&colon;:mod=	!LO:TX:t=P:problem:partia pojawia się tylko w części Benedictus
4d\	.	4d\	.	4f# 4A/	.	4dd 4f#\	.	4d\	Cre-	4d\	Cre-	4a\	Cre-	4ff#\	Cre-	4f#/	4dd\	4dd\	4ff#\	1ryy
4D/	.	4d\	.	4f# 4A/	.	4dd 4f#\	.	4D/	-do	4d\	-do	4a\	-do	4ff#\	-do	4f#/	4dd\	4dd\	4ff#\	.
2r	.	2r	.	2r	.	16dd\LL	.	2r	.	2r	.	2r	.	2r	.	2r	2r	2r	2r	.
.	.	.	.	.	.	16ff#\	.	.	.	.	.	.	.	.	.	.	.	.	.	.
.	.	.	.	.	.	16aa\	.	.	.	.	.	.	.	.	.	.	.	.	.	.
.	.	.	.	.	.	16ddd\JJ	.	.	.	.	.	.	.	.	.	.	.	.	.	.
.	.	.	.	.	.	16ddd\LL	.	.	.	.	.	.	.	.	.	.	.	.	.	.
.	.	.	.	.	.	16ccc#\	.	.	.	.	.	.	.	.	.	.	.	.	.	.
.	.	.	.	.	.	16bb\	.	.	.	.	.	.	.	.	.	.	.	.	.	.
.	.	.	.	.	.	16aa\JJ	.	.	.	.	.	.	.	.	.	.	.	.	.	.
=2	=2	=2	=2	=2	=2	=2	=2	=2	=2	=2	=2	=2	=2	=2	=2	=2	=2	=2	=2	=2
!	!	!	!	!	!	!	!	!	!	!	!	!	!	!	!	!	!LO:MO:mod=*null:null	!LO:MO:mod=*null:null	!LO:MO:mod=*null:null	!
*	*	*	*	*	*	*	*	*	*	*	*	*	*	*	*	*	*2\right	*2\right	*2\right	*
!LO:TX:t=P:problem=mixed beam:mod=	!	!	!	!	!	!LO:TX:t=P:problem=mixed beam:mod=	!	!	!	!	!	!	!	!	!	!	!	!	!	!
8C#/L	.	8A\L	.	16A/LL	.	16aa\LL	.	8r	.	8r	.	8r	.	8r	.	2a/	2ee\	2ee\	2gg\	1ryy
.	.	.	.	16c#/	.	16a/	.	.	.	.	.	.	.	.	.	.	.	.	.	.
8c#\	.	16c#\L	.	16e/	.	16aa\	.	8c#\	in	8A\	in	8g\	In	8ee\	in	.	.	.	.	.
.	.	16e\JJ	.	16g/JJ	.	16aa\JJ	.	.	.	.	.	.	.	.	.	.	.	.	.	.
*	*	*	*	*	*	*tremolo	*	*	*	*	*	*	*	*	*	*	*	*	*	*
8c#\	.	8e\L	.	16a/LL	.	16aa\LL	.	8c#\	u-	8A\	u-	8g\	u-	8ee\	u-	.	.	.	.	.
.	.	.	.	16g/	.	16aa\	.	.	.	.	.	.	.	.	.	.	.	.	.	.
8c#\J	.	8e\J	.	16e/	.	16aa\	.	8c#\	-num	8A\	-num	8g\	-num	8ee\	-num	.	.	.	.	.
.	.	.	.	16g/JJ	.	16aa\JJ	.	.	.	.	.	.	.	.	.	.	.	.	.	.
!LO:MO:mod=*null:null	!	!LO:MO:mod=*null:null	!	!	!	!	!	!	!	!	!	!	!	!	!	!	!	!	!	!
*2\right	*	*2\right	*	*	*	*Xtremolo	*	*	*	*	*	*	*	*	*	*	*	*	*	*
*tremolo	*	*tremolo	*	*	*	*	*	*	*	*	*	*	*	*	*	*	*	*	*	*
8d\L	.	8d\L	.	8f#/L	.	16aa\LL	.	4d\	De-	4A\	De-	4f#\	De-	4dd\	De-	4dd\	4ff#\	2dd\	2ff#\	.
.	.	.	.	.	.	16ff#\	.	.	.	.	.	.	.	.	.	.	.	.	.	.
8d\	.	8d\	.	16A/L	.	16aa\	.	.	.	.	.	.	.	.	.	.	.	.	.	.
.	.	.	.	16f#/JJ	.	16ddd\JJ	.	.	.	.	.	.	.	.	.	.	.	.	.	.
8d\	.	8d\	.	8A/L	.	16ddd\LL	.	8D/	-um	8A\	-um	8f#\	-um	8dd\	-um	8dd\L	8ff#\L	.	.	.
.	.	.	.	.	.	16ccc#\	.	.	.	.	.	.	.	.	.	.	.	.	.	.
8d\J	.	8d\J	.	8f#/J	.	16bb\	.	8D/	Pa-	8A\	Pa-	8f#\	Pa-	8dd\	Pa-	8dd\J	8ff#\J	.	.	.
.	.	.	.	.	.	16aa\JJ	.	.	.	.	.	.	.	.	.	.	.	.	.	.
*	*	*Xtremolo	*	*	*	*	*	*	*	*	*	*	*	*	*	*	*	*	*	*
!	!	!	!	!	!	!	!	!	!	!	!	!	!	!	!	!	!LO:LB:g=original	!	!	!
=3	=3	=3	=3	=3	=3	=3	=3	=3	=3	=3	=3	=3	=3	=3	=3	=3	=3	=3	=3	=3
!	!	!	!	!	!	!LO:TX:t=P:problem=mixed beam:mod=	!	!	!	!	!	!	!	!	!	!LO:TX:t=P:problem=brak takt nr 3:mod=	!	!	!	!
!!LO:MO:ori
8c#\L	.	8c#L 8A\	.	16g/LL	.	16aa\LL	.	8C#/	-trem	8A\	-trem	8g\	-trem	8ee\	-trem	1ryy	2ee\	2ee\	2gg\	1ryy
.	.	.	.	16A/	.	16a/	.	.	.	.	.	.	.	.	.	.	.	.	.	.
8c#\	.	16c#\L	.	16e/	.	16aa\	.	8C#/	om-	8A\	om-	8g\	om-	8ee\	om-	.	.	.	.	.
.	.	16e\JJ	.	16g/JJ	.	16aa\JJ	.	.	.	.	.	.	.	.	.	.	.	.	.	.
*	*	*	*	*	*	*tremolo	*	*	*	*	*	*	*	*	*	*	*	*	*	*
8c#\	.	8e\L	.	16a/LL	.	16aa\LL	.	8C#/	-ni-	8A\	-ni-	8g\	-ni-	8ee\	-ni-	.	.	.	.	.
.	.	.	.	16g/	.	16aa\	.	.	.	.	.	.	.	.	.	.	.	.	.	.
8c#\J	.	8e\J	.	16e/	.	16aa\	.	8C#/	-po-	8A\	-po-	8g\	-po-	8ee\	-po-	.	.	.	.	.
.	.	.	.	16g/JJ	.	16aa\JJ	.	.	.	.	.	.	.	.	.	.	.	.	.	.
*Xtremolo	*	*	*	*	*	*Xtremolo	*	*	*	*	*	*	*	*	*	*	*	*	*	*
!	!	!	!	!	!	!LO:LB:g=original	!	!	!	!	!	!	!	!	!	!	!	!	!	!
8d\L	.	8d\L	.	8f#/L	.	16aa\LL	.	4D\	-ten-	4A\	-ten-	4f#\	-ten-	4dd\	-ten-	.	4ff#\	4dd\	4ff#\	.
.	.	.	.	.	.	16dd\	.	.	.	.	.	.	.	.	.	.	.	.	.	.
8D\	.	8d\	.	16A/L	.	16ff#\	.	.	.	.	.	.	.	.	.	.	.	.	.	.
.	.	.	.	16f#/JJ	.	16aa\JJ	.	.	.	.	.	.	.	.	.	.	.	.	.	.
8F#\	.	8f#\	.	8A/L	.	16ddd\LL	.	8D\	-tem	8A\	-tem	8f#\	-tem	8dd\	-tem	.	8ff#\L	4r	4r	.
.	.	.	.	.	.	16dd\	.	.	.	.	.	.	.	.	.	.	.	.	.	.
8D\J	.	8f#\J	.	8f#/J	.	16dd\	.	8F#\	fac-	8A\	fac-	8f#\	fac-	8dd\	fac-	.	8ff#\J	.	.	.
.	.	.	.	.	.	16dd\JJ	.	.	.	.	.	.	.	.	.	.	.	.	.	.
!!LO:MO:mod
!! 8c#\L	.	8c#L 8A\	.	16g/LL	.	16aa\LL	.	8C#/	-trem	8A\	-trem	8g\	-trem	8ee\	-trem	2a	2ee\	2ee\	2gg\	1ryy
!! .	.	.	.	16A/	.	16a/	.	.	.	.	.	.	.	.	.	.	.	.	.	.
!! 8c#\	.	16c#\L	.	16e/	.	16aa\	.	8C#/	om-	8A\	om-	8g\	om-	8ee\	om-	.	.	.	.	.
!! .	.	16e\JJ	.	16g/JJ	.	16aa\JJ	.	.	.	.	.	.	.	.	.	.	.	.	.	.
!! *	*	*	*	*	*	*tremolo	*	*	*	*	*	*	*	*	*	*	*	*	*	*
!! 8c#\	.	8e\L	.	16a/LL	.	16aa\LL	.	8C#/	-ni-	8A\	-ni-	8g\	-ni-	8ee\	-ni-	.	.	.	.	.
!! .	.	.	.	16g/	.	16aa\	.	.	.	.	.	.	.	.	.	.	.	.	.	.
!! 8c#\J	.	8e\J	.	16e/	.	16aa\	.	8C#/	-po-	8A\	-po-	8g\	-po-	8ee\	-po-	.	.	.	.	.
!! .	.	.	.	16g/JJ	.	16aa\JJ	.	.	.	.	.	.	.	.	.	.	.	.	.	.
!! *Xtremolo	*	*	*	*	*	*Xtremolo	*	*	*	*	*	*	*	*	*	*	*	*	*	*
!! !	!	!	!	!	!	!LO:LB:g=original	!	!	!	!	!	!	!	!	!	!	!	!	!	!
!! 8d\L	.	8d\L	.	8f#/L	.	16aa\LL	.	4D\	-ten-	4A\	-ten-	4f#\	-ten-	4dd\	-ten-	4dd	4ff#\	4dd\	4ff#\	.
!! .	.	.	.	.	.	16dd\	.	.	.	.	.	.	.	.	.	.	.	.	.	.
!! 8D\	.	8d\	.	16A/L	.	16ff#\	.	.	.	.	.	.	.	.	.	.	.	.	.	.
!! .	.	.	.	16f#/JJ	.	16aa\JJ	.	.	.	.	.	.	.	.	.	.	.	.	.	.
!! 8F#\	.	8f#\	.	8A/L	.	16ddd\LL	.	8D\	-tem	8A\	-tem	8f#\	-tem	8dd\	-tem	8ddL	8ff#\L	4r	4r	.
!! .	.	.	.	.	.	16dd\	.	.	.	.	.	.	.	.	.	.	.	.	.	.
!! 8D\J	.	8f#\J	.	8f#/J	.	16dd\	.	8F#\	fac-	8A\	fac-	8f#\	fac-	8dd\	fac-	8ddJ	8ff#\J	.	.	.
!! .	.	.	.	.	.	16dd\JJ	.	.	.	.	.	.	.	.	.	.	.	.	.	.
!!LO:MO:end
!	!	!	!	!LO:LB:g=original	!	!	!	!	!	!	!	!LO:LB:g=original	!	!	!	!LO:LB:g=original	!	!	!	!
=4	=4	=4	=4	=4	=4	=4	=4	=4	=4	=4	=4	=4	=4	=4	=4	=4	=4	=4	=4	=4
*	*	*	*	*	*	*^	*	*	*	*	*	*	*	*	*	*	*	*	*	*
!	!	!	!	!	!	!LO:MO:mod=*null:null	!	!	!	!	!	!	!	!	!	!	!	!	!	!	!
*	*	*	*	*	*	*2\right	*	*	*	*	*	*	*	*	*	*	*	*	*	*	*
*	*	*	*	*tremolo	*	*tremolo	*	*	*	*	*	*	*	*	*	*	*	*	*	*	*
!	!	!	!	!	!	!	!	!	!	!	!	!	!	!	!	!	!	!LO:MO:mod=!null:null	!	!	!
!	!	!	!	!	!	!	!	!	!	!	!	!	!	!	!	!	!	!LO:N:vis=2	!	!	!
8G\L	.	8g\L	.	16e/LL	.	16ddLL	2ryyyy	.	8G\	-to-	8B\	-to-	8e\	-to-	8dd\	-to-	4ee\	4ee\	1b	1ee	1ryy
.	.	.	.	16e/	.	16dd\	.	.	.	.	.	.	.	.	.	.	.	.	.	.	.
16B\L	.	16b\L	.	16e/	.	16dd\	.	.	8G\	-rem	8B\	-rem	8e\	-rem	8dd\	-rem	.	.	.	.	.
16A\JJ	.	16a\JJ	.	16e/	.	16dd\	.	.	.	.	.	.	.	.	.	.	.	.	.	.	.
!	!	!	!	!	!	!	!	!	!	!	!LO:LB:g=original	!	!	!	!LO:LB:g=original	!	!	!	!	!	!
8G\L	.	8g\L	.	16e/	.	16dd\	.	.	8G\	Cae-	8B\	Cae-	8e\	Cae-	8dd\	cae-	4r	4r	.	.	.
.	.	.	.	16e/	.	16dd\	.	.	.	.	.	.	.	.	.	.	.	.	.	.	.
!	!	!	!	!	!	!	!	!	!LO:LB:g=original	!	!	!	!	!	!	!	!	!	!	!	!
8G\J	.	8g\J	.	16e/	.	16dd\	.	.	16G\	-li	16B\	-li	16e\	-li	16dd\	-li	.	.	.	.	.
.	.	.	.	16e/JJ	.	16dd\JJ	.	.	16G\	et	16B\	et	16e\	et	16dd\	et	.	.	.	.	.
!	!	!	!	!	!	!	!	!	!	!	!	!	!	!	!	!	!LO:MO:mod=*null:null	!	!	!	!
*	*	*	*	*	*	*	*	*	*	*	*	*	*	*	*	*	*2\right	*tremolo	*	*	*
!	!	!LO:LB:g=original	!	!	!	!	!	!	!	!	!	!	!	!	!	!	!	!	!	!	!
!!LO:MO:ori
8G#X\L	.	8g#\L	.	16b 16e/LL	.	16ee/LL	16dd\LL	.	8G#X\	ter-	8B\	ter-	8e\	ter-	8dd\	ter-	2ee\	8ee\L	.	.	.
.	.	.	.	16b 16e/	.	16ee/	16dd\	.	.	.	.	.	.	.	.	.	.	.	.	.	.
16B\L	.	16b\L	.	16b 16e/	.	16ee/	16dd\	.	8G#\	-rae	8B\	-rae	8e\	-rae	8dd\	-rae	.	8ee\	.	.	.
16A\JJ	.	16a\JJ	.	16b 16e/	.	16ee/	16dd\	.	.	.	.	.	.	.	.	.	.	.	.	.	.
8G#\L	.	8g#\L	.	16b 16e/	.	16ee/	16dd\	.	8G#\	vi-	8B\	vi-	8e\	vi-	8dd\	vi-	.	8ee\	.	.	.
.	.	.	.	16b 16e/	.	16ee/	16dd\	.	.	.	.	.	.	.	.	.	.	.	.	.	.
8E\J	.	8e\J	.	16b 16e/	.	16ee/	16dd\	.	8G#\	-si-	8B\	-si-	8e\	-ſi-	8dd\	-si-	.	8ee\J	.	.	.
.	.	.	.	16b 16e/JJ	.	16ee/JJ	16dd\JJ	.	.	.	.	.	.	.	.	.	.	.	.	.	.
*	*	*	*	*	*	*	*Xtremolo	*	*	*	*	*	*	*	*	*	*	*Xtremolo	*	*	*
!!LO:MO:mod
!! *	*	*	*	*	*	*	*	*	*	*	*	*	*	*	*	*	*tremolo	*	*	*	*
!! 8G#X\L	.	8g#\L	.	16b 16e/LL	.	16ee/LL	16dd\LL	.	8G#X\	ter-	8B\	ter-	8e\	ter-	8dd\	ter-	8eeL	8ee\L	.	.	.
!! .	.	.	.	16b 16e/	.	16ee/	16dd\	.	.	.	.	.	.	.	.	.	.	.	.	.	.
!! 16B\L	.	16b\L	.	16b 16e/	.	16ee/	16dd\	.	8G#\	-rae	8B\	-rae	8e\	-rae	8dd\	-rae	8ee	8ee\	.	.	.
!! 16A\JJ	.	16a\JJ	.	16b 16e/	.	16ee/	16dd\	.	.	.	.	.	.	.	.	.	.	.	.	.	.
!! 8G#\L	.	8g#\L	.	16b 16e/	.	16ee/	16dd\	.	8G#\	vi-	8B\	vi-	8e\	vi-	8dd\	vi-	8ee	8ee\	.	.	.
!! .	.	.	.	16b 16e/	.	16ee/	16dd\	.	.	.	.	.	.	.	.	.	.	.	.	.	.
!! 8E\J	.	8e\J	.	16b 16e/	.	16ee/	16dd\	.	8G#\	-si-	8B\	-si-	8e\	-ſi-	8dd\	-si-	8eeJ	8ee\J	.	.	.
!! .	.	.	.	16b 16e/JJ	.	16ee/JJ	16dd\JJ	.	.	.	.	.	.	.	.	.	.	.	.	.	.
!! *	*	*	*	*	*	*	*	*	*	*	*	*	*	*	*	*	*Xtremolo	*Xtremolo	*	*	*
!!LO:MO:end
*	*	*	*	*	*	*v	*v	*	*	*	*	*	*	*	*	*	*	*	*	*	*
=5	=5	=5	=5	=5	=5	=5	=5	=5	=5	=5	=5	=5	=5	=5	=5	=5	=5	=5	=5	=5
*	*	*tremolo	*	*	*	*	*	*	*	*	*	*	*	*	*	*	*	*	*	*
!	!	!	!	!	!	!LO:TX:t=P:problem=mixed beam:mod=	!	!	!	!	!	!	!	!	!	!	!	!	!	!
8A\L	.	8a\L	.	16e/LL	.	16cc#\LL	.	4A\	-bi-	4A\	-bi-	4e\	-bi-	4cc#\	-bi-	2a/	2ee\	2cc#\	1ee	1ryy
.	.	.	.	16cc#/	.	16aa\	.	.	.	.	.	.	.	.	.	.	.	.	.	.
8c#\J	.	8a\	.	16e/	.	16a/	.	.	.	.	.	.	.	.	.	.	.	.	.	.
.	.	.	.	16cc#/	.	16a/JJ	.	.	.	.	.	.	.	.	.	.	.	.	.	.
8r	.	8a\	.	16e/	.	16a\LL	.	8A\	-li-	8A\	-li-	8e\	-li-	8cc#\	-li-	.	.	.	.	.
.	.	.	.	16cc#/	.	16cc#\	.	.	.	.	.	.	.	.	.	.	.	.	.	.
8A\	.	8a\J	.	16e/	.	16cc#\	.	8A\	-um	8A\	-um	8e\	-um	8cc#\	-um	.	.	.	.	.
.	.	.	.	16cc#/JJ	.	16ee\JJ	.	.	.	.	.	.	.	.	.	.	.	.	.	.
!	!	!	!	!	!	!	!	!LO:SIC:s=4G#\	!	!	!	!	!	!	!	!	!	!	!	!
8G#X\L	.	8g#X\L	.	16e/LL	.	16ddKL 16e/	.	4G\	om-	4B\	om-	4e\	o-	4dd\	om-	4ee\	4ee\	2dd\	.	.
.	.	.	.	16b/	.	8dd 8e/	.	.	.	.	.	.	.	.	.	.	.	.	.	.
8B\	.	8g#X\	.	16e/	.	.	.	.	.	.	.	.	.	.	.	.	.	.	.	.
.	.	.	.	16b/	.	8dd 8e/	.	.	.	.	.	.	.	.	.	.	.	.	.	.
!	!	!	!	!	!	!	!	!LO:SIC:s=8G#\	!	!	!	!	!	!	!	!	!	!	!	!
8E\	.	8g#X\	.	16e/	.	.	.	8G\	-ni-	8B\	-ni-	8e\	-mni-	8dd\	-ni-	8ee\L	8ee\L	.	.	.
.	.	.	.	16b/	.	8dd 8e/	.	.	.	.	.	.	.	.	.	.	.	.	.	.
!	!	!	!	!	!	!	!	!LO:SIC:s=8G#\	!	!	!	!	!	!	!	!	!	!	!	!
8G#\J	.	8g#X\J	.	16e/	.	.	.	8G\	-um	8B\	-um	8e\	-um	8dd\	-um	8ee\J	8ee\J	.	.	.
.	.	.	.	16b/JJ	.	16ddJk 16e/	.	.	.	.	.	.	.	.	.	.	.	.	.	.
!	!	!LO:MO:mod=*null:null	!	!	!	!	!	!	!	!	!	!	!	!	!	!	!	!	!	!
*	*	*Xtremolo	*	*Xtremolo	*	*	*	*	*	*	*	*	*	*	*	*	*	*	*	*
=6	=6	=6	=6	=6	=6	=6	=6	=6	=6	=6	=6	=6	=6	=6	=6	=6	=6	=6	=6	=6
*	*	*	*	*^	*	*	*	*	*	*	*	*	*	*	*	*	*	*	*	*
!!LO:MO:ori
!	!	!LO:TX:t=P:problem=brak taktu nr 6:mod=	!	!	!	!	!LO:TX:t=P:problem=mixed beam:mod=	!	!	!	!	!	!	!	!	!	!	!	!	!	!
8A\L	.	1ryy	.	16cc#/KL	2e/	.	16cc#\LL	.	8A\	et	8A\	et	8e\	et	8cc#\	et	4a/	4ee\	4cc#\	4ee\	1ryy
.	.	.	.	8cc#/	.	.	16aa\	.	.	.	.	.	.	.	.	.	.	.	.	.	.
8c#\J	.	.	.	.	.	.	16a/	.	8A\	in-	8A\	in-	8e\	in-	8cc#\	in-	.	.	.	.	.
.	.	.	.	8cc#/	.	.	16a/JJ	.	.	.	.	.	.	.	.	.	.	.	.	.	.
8r	.	.	.	.	.	.	16a\LL	.	8A\	-vi-	8A\	-vi-	8e\	-vi-	8cc#\	-vi-	4r	4r	4r	4r	.
.	.	.	.	8cc#/	.	.	16cc#\	.	.	.	.	.	.	.	.	.	.	.	.	.	.
8A\	.	.	.	.	.	.	16cc#\	.	8A\	-si-	8A\	-si-	8e\	-ſi-	8cc#\	-ſi-	.	.	.	.	.
.	.	.	.	16cc#/Jk	.	.	16ee\JJ	.	.	.	.	.	.	.	.	.	.	.	.	.	.
*	*	*	*	*	*	*	*	*	*	*	*	*	*	*	*	*	*tremolo	*tremolo	*	*	*
!LO:LB:g=original	!	!	!	!	!	!	!	!	!	!	!	!	!	!	!	!	!	!	!	!	!
8G#X\L	.	.	.	16b/KL	2e/	.	16ddKL 16e/	.	8.G#X\	-bi-	8.B\	-bi-	8.e\	-bi-	8.dd\	-bi-	8ee\L	8ee\L	2dd\	2ee\	.
.	.	.	.	8b/	.	.	8dd 8e/	.	.	.	.	.	.	.	.	.	.	.	.	.	.
8B\	.	.	.	.	.	.	.	.	.	.	.	.	.	.	.	.	8ee\	8ee\	.	.	.
.	.	.	.	8b/	.	.	8dd 8e/	.	16G#\	-li-	16B\	-li-	16e\	-li-	16dd\	-li-	.	.	.	.	.
!	!	!	!	!	!	!	!	!	!	!	!	!	!LO:LB:g=original	!	!	!	!	!	!	!	!
8E\	.	.	.	.	.	.	.	.	8G#\	-um	8B\	-um	8e\	-um	8dd\	-um	8ee\	8ee\	.	.	.
.	.	.	.	8b/	.	.	8dd 8e/	.	.	.	.	.	.	.	.	.	.	.	.	.	.
8G#\J	.	.	.	.	.	.	.	.	8G#\	in-	8B\	in-	8e\	in-	8dd\	in-	8ee\J	8ee\J	.	.	.
.	.	.	.	16b/Jk	.	.	16ddJk 16e/	.	.	.	.	.	.	.	.	.	.	.	.	.	.
*	*	*	*	*	*	*	*	*	*	*	*	*	*	*	*	*	*Xtremolo	*Xtremolo	*	*	*
!!LO:MO:mod
!! 8A\L	.	8aL	.	16cc#/KL	2e/	.	16cc#\LL	.	8A\	et	8A\	et	8e\	et	8cc#\	et	4a/	4ee\	4cc#\	4ee\	1ryy
!! .	.	.	.	8cc#/	.	.	16aa\	.	.	.	.	.	.	.	.	.	.	.	.	.	.
!! 8c#\J	.	8a	.	.	.	.	16a/	.	8A\	in-	8A\	in-	8e\	in-	8cc#\	in-	.	.	.	.	.
!! .	.	.	.	8cc#/	.	.	16a/JJ	.	.	.	.	.	.	.	.	.	.	.	.	.	.
!! 8r	.	8a	.	.	.	.	16a\LL	.	8A\	-vi-	8A\	-vi-	8e\	-vi-	8cc#\	-vi-	4r	4r	4r	4r	.
!! .	.	.	.	8cc#/	.	.	16cc#\	.	.	.	.	.	.	.	.	.	.	.	.	.	.
!! 8A\	.	8aJ	.	.	.	.	16cc#\	.	8A\	-si-	8A\	-si-	8e\	-ſi-	8cc#\	-ſi-	.	.	.	.	.
!! .	.	.	.	16cc#/Jk	.	.	16ee\JJ	.	.	.	.	.	.	.	.	.	.	.	.	.	.
!! *	*	*	*	*	*	*	*	*	*	*	*	*	*	*	*	*	*tremolo	*tremolo	*	*	*
!! !LO:LB:g=original	!	!	!	!	!	!	!	!	!	!	!	!	!	!	!	!	!	!	!	!	!
!! 8G#X\L	.	8g#L	.	16b/KL	2e/	.	16ddKL 16e/	.	8.G#X\	-bi-	8.B\	-bi-	8.e\	-bi-	8.dd\	-bi-	8ee\L	8ee\L	2dd\	2ee\	.
!! .	.	.	.	8b/	.	.	8dd 8e/	.	.	.	.	.	.	.	.	.	.	.	.	.	.
!! 8B\	.	8g#	.	.	.	.	.	.	.	.	.	.	.	.	.	.	8ee\	8ee\	.	.	.
!! .	.	.	.	8b/	.	.	8dd 8e/	.	16G#\	-li-	16B\	-li-	16e\	-li-	16dd\	-li-	.	.	.	.	.
!! !	!	!	!	!	!	!	!	!	!	!	!	!	!LO:LB:g=original	!	!	!	!	!	!	!	!
!! 8E\	.	8g#	.	.	.	.	.	.	8G#\	-um	8B\	-um	8e\	-um	8dd\	-um	8ee\	8ee\	.	.	.
!! .	.	.	.	8b/	.	.	8dd 8e/	.	.	.	.	.	.	.	.	.	.	.	.	.	.
!! 8G#\J	.	8g#J	.	.	.	.	.	.	8G#\	in-	8B\	in-	8e\	in-	8dd\	in-	8ee\J	8ee\J	.	.	.
!! .	.	.	.	16b/Jk	.	.	16ddJk 16e/	.	.	.	.	.	.	.	.	.	.	.	.	.	.
!! *	*	*Xtremolo	*	*	*	*	*	*	*	*	*	*	*	*	*	*	*Xtremolo	*Xtremolo	*	*	*
!!LO:MO:end
*	*	*	*	*v	*v	*	*	*	*	*	*	*	*	*	*	*	*	*	*	*	*
!	!	!	!	!	!	!LO:LB:g=original	!	!	!	!	!	!	!	!	!	!	!	!LO:LB:g=original	!	!
=7	=7	=7	=7	=7	=7	=7	=7	=7	=7	=7	=7	=7	=7	=7	=7	=7	=7	=7	=7	=7
!	!	!	!	!LO:TX:t=P:problem=mixed beam:mod=	!	!	!	!	!	!	!	!	!	!	!	!	!	!	!	!
8A\L	.	8a\L	.	8e/L	.	16cc#\LL	.	8A\	-vi-	8A\	-vi-	8e\	-vi-	8cc#\	-vi-	8a\	8ee\	4cc#\	8ee\	1ryy
.	.	.	.	.	.	32b\L	.	.	.	.	.	.	.	.	.	.	.	.	.	.
.	.	.	.	.	.	32cc#\JJJ	.	.	.	.	.	.	.	.	.	.	.	.	.	.
8F#\	.	8f#\	.	8cc#\	.	16aa\LL	.	8F#\	-si-	8f#\	-si-	8a\	-si-	8cc#\	-si-	4ff#\	4aa\	.	4aa\	.
.	.	.	.	.	.	16cc#\JJ	.	.	.	.	.	.	.	.	.	.	.	.	.	.
8D\	.	8f#\	.	8b\	.	16b\LL	.	8D\	-bi-	8f#\	-bi-	8a\	-bi-	8b\	-bi-	.	.	4b\	.	.
.	.	.	.	.	.	16aa\JJ	.	.	.	.	.	.	.	.	.	.	.	.	.	.
8E\J	.	8e\J	.	8b\J	.	16b\LL	.	8E\	-li-	8e\	-li-	8g#X\	-li-	8b\	-li-	8ee\	8gg#X\	.	8gg#X\	.
.	.	.	.	.	.	16gg#X\JJ	.	.	.	.	.	.	.	.	.	.	.	.	.	.
!LO:TX:t=P:problem=mixed beam:mod=	!	!	!	!LO:TX:t=P:problem=mixed beam:mod=	!	!LO:TX:t=P:problem=mixed beam:mod=	!	!	!	!	!	!	!	!	!	!LO:TX:t=P:problem=mixed beam:mod=	!	!	!	!
!	!	!	!	!	!	!	!	!LO:LB:g=original	!	!LO:LB:g=original	!	!	!	!LO:LB:g=original	!	!	!	!	!	!
8AA/L	.	8e\L	.	16cc#\KL	.	16aa\LL	.	4AA/	-um	4e\	-um	4a\	-um	4cc#\	-um	8ee\L	8aa\L	4cc#\	4aa\	.
.	.	.	.	8e/	.	16a/	.	.	.	.	.	.	.	.	.	.	.	.	.	.
8A\	.	8c#\	.	.	.	16a/	.	.	.	.	.	.	.	.	.	8a/	8ee\	.	.	.
.	.	.	.	8e/	.	16a/JJ	.	.	.	.	.	.	.	.	.	.	.	.	.	.
8c#\	.	8A\	.	.	.	16a\LL	.	8A\	et	8e\	et	8a\	et	8cc#\	et	8a/J	8ee\J	4r	4r	.
.	.	.	.	8e/	.	16cc#\	.	.	.	.	.	.	.	.	.	.	.	.	.	.
8A\J	.	8c#\J	.	.	.	16ee\	.	8A\	in	8e\	in	8a\	in	8cc#\	in	8r	8r	.	.	.
.	.	.	.	16e/Jk	.	16aa\JJ	.	.	.	.	.	.	.	.	.	.	.	.	.	.
=8	=8	=8	=8	=8	=8	=8	=8	=8	=8	=8	=8	=8	=8	=8	=8	=8	=8	=8	=8	=8
*	*	*	*	*^	*	*	*	*	*	*	*	*	*	*	*	*	*	*	*	*
*	*	*	*	*tremolo	*	*	*	*	*	*	*	*	*	*	*	*	*	*	*	*	*
!	!	!	!	!	!	!	!	!	!	!	!	!	!	!	!	!	!	!	!	!LO:SIC:s=2gg	!
8c#\L	.	8e\L	.	8a 8e/L	2ryyyy	.	16ggnKL 16a\	.	4A\	u-	4A\	u-	4g\	u-	4ee\	u-	2a/	2ee\	2ee\	2ggn\	1ryy
.	.	.	.	.	.	.	8gg 8a\	.	.	.	.	.	.	.	.	.	.	.	.	.	.
8e\	.	8c#\	.	8a 8e/	.	.	.	.	.	.	.	.	.	.	.	.	.	.	.	.	.
.	.	.	.	.	.	.	8gg 8a\	.	.	.	.	.	.	.	.	.	.	.	.	.	.
8A\	.	8c#\	.	8a 8e/	.	.	.	.	4c#\	-num	4A\	-num	4g\	-num	4ee\	-num	.	.	.	.	.
.	.	.	.	.	.	.	8gg 8a\	.	.	.	.	.	.	.	.	.	.	.	.	.	.
8c#\J	.	8c#\J	.	8a 8e/J	.	.	.	.	.	.	.	.	.	.	.	.	.	.	.	.	.
.	.	.	.	.	.	.	16ggJk 16a\	.	.	.	.	.	.	.	.	.	.	.	.	.	.
*	*	*tremolo	*	*Xtremolo	*	*	*	*	*	*	*	*	*	*	*	*	*	*	*	*	*
8d\L	.	8d\L	.	16a/KL	2f#/	.	16ff#\LL	.	4d\	Do-	4A\	Do-	4f#\	Do-	4ff#\	Do-	4dd\	4ff#\	2dd\	2ff#\	.
.	.	.	.	8a/	.	.	16ddd\JJ	.	.	.	.	.	.	.	.	.	.	.	.	.	.
8f#\J	.	8d\	.	.	.	.	16dd\LL	.	.	.	.	.	.	.	.	.	.	.	.	.	.
.	.	.	.	8a/	.	.	16dd\JJ	.	.	.	.	.	.	.	.	.	.	.	.	.	.
8r	.	8d\	.	.	.	.	16dd\LL	.	8d\	-mi-	8A\	-mi-	8f#\	-mi-	8ff#\	-mi-	8dd\L	8ff#\L	.	.	.
.	.	.	.	8a/	.	.	16ff#\	.	.	.	.	.	.	.	.	.	.	.	.	.	.
8d\	.	8d\J	.	.	.	.	16ff#\	.	8d\	-num	8A\	-num	8f#\	-num	8ff#\	-num	8dd\J	8ff#\J	.	.	.
.	.	.	.	16a/Jk	.	.	16aa\JJ	.	.	.	.	.	.	.	.	.	.	.	.	.	.
!	!	!	!	!	!	!	!	!	!	!	!	!	!	!	!	!	!	!	!	!LO:LB:g=original	!
=9	=9	=9	=9	=9	=9	=9	=9	=9	=9	=9	=9	=9	=9	=9	=9	=9	=9	=9	=9	=9	=9
*	*	*	*	*	*	*	*	*	*	*	*	*	*	*	*	*	*tremolo	*tremolo	*	*	*
8c#\L	.	8c#/L	.	16a/KL	2e/	.	16ggKL 16a\	.	8c#\	Je-	8A\	Je-	8g\	Je-	8ee\	Je-	8a/L	8ee\L	2ee\	2gg\	1ryy
.	.	.	.	8a/	.	.	8gg 8a\	.	.	.	.	.	.	.	.	.	.	.	.	.	.
8e\J	.	8c#/	.	.	.	.	.	.	8c#\	-sum	8A\	-sum	8g\	-sum	8ee\	-sum	8a/	8ee\	.	.	.
.	.	.	.	8a/	.	.	8gg 8a\	.	.	.	.	.	.	.	.	.	.	.	.	.	.
!	!	!	!	!	!	!	!	!	!	!LO:MO:mod=Chri-	!	!LO:MO:mod=Chri-	!	!	!	!LO:MO:mod=Chri-	!	!	!	!	!
8A\L	.	8c#/	.	.	.	.	.	.	8c#\	X[ri]-	8A\	X[ri]-	8g\	Chri-	8ee\	X[ri]-	8a/	8ee\	.	.	.
.	.	.	.	8a/	.	.	8gg 8a\	.	.	.	.	.	.	.	.	.	.	.	.	.	.
8c#\J	.	8c#/J	.	.	.	.	.	.	8c#\	-stum	8A\	-stum	8g\	-stum	8ee\	-stum	8a/J	8ee\J	.	.	.
.	.	.	.	16a/Jk	.	.	16ggJk 16a\	.	.	.	.	.	.	.	.	.	.	.	.	.	.
*	*	*Xtremolo	*	*	*	*	*	*	*	*	*	*	*	*	*	*	*Xtremolo	*Xtremolo	*	*	*
!	!	!	!	!LO:LB:g=original	!	!	!	!	!	!	!	!	!LO:LB:g=original	!	!	!	!	!	!	!	!
8d\L	.	8d/L	.	16aKL 16f#/	2ryyyy	.	8ff#\L	.	4d\	Fi-	4A\	Fi-	4f#\	Fi-	4dd\	fi-	4dd\	4ff#\	4dd\	4ff#\	.
.	.	.	.	8a 8f#/	.	.	.	.	.	.	.	.	.	.	.	.	.	.	.	.	.
8d\	.	8d/	.	.	.	.	32ff#\LL	.	.	.	.	.	.	.	.	.	.	.	.	.	.
.	.	.	.	.	.	.	32ee\	.	.	.	.	.	.	.	.	.	.	.	.	.	.
.	.	.	.	16aJk 16f#/	.	.	32ff#\	.	.	.	.	.	.	.	.	.	.	.	.	.	.
.	.	.	.	.	.	.	32gg\JJJ	.	.	.	.	.	.	.	.	.	.	.	.	.	.
*	*	*	*	*	*	*	*tremolo	*	*	*	*	*	*	*	*	*	*	*	*	*	*
!	!	!	!	!LO:TX:t=P:problem=mixed beam:mod=	!	!	!	!	!	!	!	!	!	!	!	!	!	!	!	!	!
8B\	.	8B/	.	16f#/KL	.	.	16ff#\LL	.	8B\	-li-	8B\	-li-	8f#\	-li-	8dd\	-li-	4r	4r	4r	4r	.
.	.	.	.	8dd\	.	.	16ff#\	.	.	.	.	.	.	.	.	.	.	.	.	.	.
8B\J	.	8B/J	.	.	.	.	16ff#\	.	8B\	-um	8B\	-um	8f#\	-um	8dd\	-um	.	.	.	.	.
.	.	.	.	16dd\Jk	.	.	16ff#\JJ	.	.	.	.	.	.	.	.	.	.	.	.	.	.
*	*	*	*	*	*	*	*Xtremolo	*	*	*	*	*	*	*	*	*	*	*	*	*	*
!	!	!	!	!	!	!	!LO:LB:g=original	!	!	!	!	!	!	!	!	!	!	!	!	!	!
=10	=10	=10	=10	=10	=10	=10	=10	=10	=10	=10	=10	=10	=10	=10	=10	=10	=10	=10	=10	=10	=10
*	*	*tremolo	*	*	*	*	*	*	*	*	*	*	*	*	*	*	*tremolo	*tremolo	*	*	*
8A#X\L	.	8A#X/L	.	16cc#/KL	2e/	.	16eeKL 16f#\	.	8A#X\	De-	8c#\	De-	8f#\	De-	8ee\	De-	8f#/L	8ff#\L	2cc#\	2ee\	1ryy
.	.	.	.	8cc#/	.	.	8ee 8f#\	.	.	.	.	.	.	.	.	.	.	.	.	.	.
8c#\	.	8A#/	.	.	.	.	.	.	8A#\	-i	8c#\	-i	8f#\	-i	8ee\	-i	8f#/	8ff#\	.	.	.
.	.	.	.	8cc#/	.	.	8ee 8f#\	.	.	.	.	.	.	.	.	.	.	.	.	.	.
8F#\	.	8A#/	.	.	.	.	.	.	8A#\	u-	8c#\	u-	8f#\	u-	8ee\	u-	8f#/	8ff#\	.	.	.
.	.	.	.	8cc#/	.	.	8ee 8f#\	.	.	.	.	.	.	.	.	.	.	.	.	.	.
8A#\J	.	8A#/J	.	.	.	.	.	.	8A#\	-ni-	8c#\	-ni-	8f#\	-ni-	8ee\	-ni-	8f#/J	8ff#\J	.	.	.
.	.	.	.	16cc#/Jk	.	.	16eeJk 16f#\	.	.	.	.	.	.	.	.	.	.	.	.	.	.
8B\L	.	8B/L	.	16ddKL 16f#/	2ryyyy	.	16dd\LL	.	8.B\	-ge-	8.B\	-ge-	8.f#\	-ge-	8.dd\	-ge-	8f#/L	8ff#\L	2b\	2dd\	.
.	.	.	.	8dd 8f#/	.	.	16bb\	.	.	.	.	.	.	.	.	.	.	.	.	.	.
8d\J	.	8B/	.	.	.	.	16ff#\	.	.	.	.	.	.	.	.	.	8f#/	8ff#\	.	.	.
.	.	.	.	8dd 8f#/	.	.	16ff#\JJ	.	16B\	-ni-	16B\	-ni-	16f#\	-ni-	16dd\	-ni-	.	.	.	.	.
8r	.	8B/	.	.	.	.	16b\LL	.	4B\	-tum	4B\	-tum	4f#\	-tum	4dd\	-tum	8f#/	8ff#\	.	.	.
.	.	.	.	8dd 8f#/	.	.	16dd\	.	.	.	.	.	.	.	.	.	.	.	.	.	.
8B\	.	8B/J	.	.	.	.	16dd\	.	.	.	.	.	.	.	.	.	8f#/J	8ff#\J	.	.	.
.	.	.	.	16ddJk 16f#/	.	.	16ff#\JJ	.	.	.	.	.	.	.	.	.	.	.	.	.	.
!	!	!LO:LB:g=original	!	!	!	!	!	!	!	!	!	!	!	!	!LO:LB:g=original	!	!	!	!	!	!
=11	=11	=11	=11	=11	=11	=11	=11	=11	=11	=11	=11	=11	=11	=11	=11	=11	=11	=11	=11	=11	=11
!	!	!LO:SIC:s=8A#/L	!	!	!	!	!	!	!LO:SIC:s=8A#\	!	!	!	!	!	!	!	!	!	!	!	!
8A#X\L	.	8A/L	.	16cc#/KL	2f#/	.	16eeKL 16f#\	.	8A\	et	8c#\	et	8f#\	et	8ee\	et	8f#/L	8ff#\L	2cc#\	2ee\	1ryy
!	!	!	!	!	!	!	!	!	!LO:SIC:s=8A#\	!	!	!	!	!	!	!	!	!	!	!	!
.	.	.	.	8cc#/	.	.	8ee 8f#\	.	.	.	.	.	.	.	.	.	.	.	.	.	.
!	!	!LO:SIC:s=8A#/	!	!	!	!	!	!	!	!	!	!	!	!	!	!	!	!	!	!	!
8c#\	.	8A/	.	.	.	.	.	.	8A\	ex	8c#\	ex	8f#\	ex	8ee\	ex	8f#/	8ff#\	.	.	.
!	!	!	!	!	!	!	!	!	!LO:SIC:s=8A#\	!	!	!	!	!	!	!	!	!	!	!	!
.	.	.	.	8cc#/	.	.	8ee 8f#\	.	.	.	.	.	.	.	.	.	.	.	.	.	.
!	!	!LO:SIC:s=8A#/	!	!	!	!	!	!	!LO:LB:g=original	!	!LO:LB:g=original	!	!	!	!	!	!	!	!	!	!
8F#\	.	8A/	.	.	.	.	.	.	8A\	pa-	8c#\	Pa-	8f#\	Pa-	8ee\	Pa-	8f#/	8ff#\	.	.	.
!	!	!	!	!	!	!	!	!	!LO:SIC:s=8A#\	!	!	!	!	!	!	!	!	!	!	!	!
.	.	.	.	8cc#/	.	.	8ee 8f#\	.	.	.	.	.	.	.	.	.	.	.	.	.	.
!	!	!LO:SIC:s=8A#/J	!	!	!	!	!	!	!	!	!	!	!	!	!	!	!	!	!	!	!
8A#\J	.	8A/J	.	.	.	.	.	.	8A\	-tre	8c#\	-tre	8f#\	-tre	8ee\	-tre	8f#/J	8ff#\J	.	.	.
.	.	.	.	16cc#/Jk	.	.	16eeJk 16f#\	.	.	.	.	.	.	.	.	.	.	.	.	.	.
*	*	*Xtremolo	*	*	*	*	*	*	*	*	*	*	*	*	*	*	*Xtremolo	*Xtremolo	*	*	*
!LO:TX:t=P:problem=mixed beam:mod=	!	!	!	!	!	!	!	!	!	!	!	!	!	!	!	!	!	!	!	!	!
8B\L	.	8B\L	.	16b\KL	2ryyyy	.	16dd#X\LL	.	8B\	na-	8B\	na-	8f#\	na-	8dd#X\	na-	4f#/	4ff#\	2b\	4dd#X\	.
.	.	.	.	8b\	.	.	16ff#\	.	.	.	.	.	.	.	.	.	.	.	.	.	.
8BB/	.	8B\	.	.	.	.	16b\	.	8B\	-tum	8B\	-tum	8f#\	-tum	8dd#\	-tum	.	.	.	.	.
.	.	.	.	8b\	.	.	16b\JJ	.	.	.	.	.	.	.	.	.	.	.	.	.	.
!LO:SIC:s=8D#	!	!LO:SIC:s=8d#	!	!	!	!	!	!	!	!	!	!	!	!	!	!	!	!	!	!	!
8D/	.	8c#\	.	.	.	.	16b\LL	.	8D#X\	an-	8B\	an-	8f#\	an-	8ff#\	an-	4r	4r	.	4ff#\	.
.	.	.	.	8b\	.	.	16dd#\	.	.	.	.	.	.	.	.	.	.	.	.	.	.
8BB/J	.	8d#\J	.	.	.	.	16ff#\	.	8D#\	-te	8B\	-te	8f#\	-te	8ff#\	-te	.	.	.	.	.
.	.	.	.	16b\Jk	.	.	16aa\JJ	.	.	.	.	.	.	.	.	.	.	.	.	.	.
*	*	*	*	*v	*v	*	*	*	*	*	*	*	*	*	*	*	*	*	*	*	*
!	!	!	!	!	!	!	!	!	!	!	!	!LO:LB:g=original	!	!	!	!	!LO:LB:g=original	!	!	!
=12	=12	=12	=12	=12	=12	=12	=12	=12	=12	=12	=12	=12	=12	=12	=12	=12	=12	=12	=12	=12
!	!	!	!	!	!	!	!	!	!	!	!	!LO:SIC:s=4g#	!LO:MO:mod=om-	!	!	!LO:TX:a:t=1.:mod=	!LO:TX:a:t=1:mod=	!	!LO:SIC:s=4gg#	!
8E\L	.	8e\L	.	16b\KL	.	16gg#X\LL	.	4E\	om-	4B\	o-	4g\	Om-	4ee\	om-	1r	1r	4b\	4gg\	1ryy
.	.	.	.	8b\	.	16bb\	.	.	.	.	.	.	.	.	.	.	.	.	.	.
!LO:SIC:s=8G#	!	!	!	!	!	!	!	!	!	!	!	!	!	!	!	!	!	!	!	!
8G\	.	8e\	.	.	.	16ee\	.	.	.	.	.	.	.	.	.	.	.	.	.	.
.	.	.	.	8b\	.	16ee\JJ	.	.	.	.	.	.	.	.	.	.	.	.	.	.
8B\	.	8e\	.	.	.	16ee\LL	.	8G#X\	-ni-	8d\	-mni-	8b\	-ni-	8ee\	-ni-	.	.	4r	4r	.
.	.	.	.	8b\	.	16gg#\	.	.	.	.	.	.	.	.	.	.	.	.	.	.
!LO:SIC:s=8G#J	!	!	!	!	!	!	!	!	!	!	!	!	!	!	!	!	!	!	!	!
8Gn\J	.	8e\J	.	.	.	16bb\	.	8G#\	-a	8d\	-a	8b\	-a	8ee\	-a	.	.	.	.	.
.	.	.	.	16b\Jk	.	16dd\JJ	.	.	.	.	.	.	.	.	.	.	.	.	.	.
!	!	!	!	!	!	!	!	!	!LO:MO:mod=sae-	!	!LO:MO:mod=sae-	!	!LO:MO:mod=sae-	!	!LO:MO:mod=sae-	!	!	!	!	!
8A\L	.	8e\L	.	16aKL 16e/	.	16cc#\LL	.	8.A\	Sae-	8.c#\	Sae-	8.a\	Sae-	8.ee\	Sae-	.	.	4cc#\	2ee\	.
.	.	.	.	8a 8e/	.	16ee\	.	.	.	.	.	.	.	.	.	.	.	.	.	.
8c#\	.	8c#\	.	.	.	16a\	.	.	.	.	.	.	.	.	.	.	.	.	.	.
.	.	.	.	8a 8e/	.	16a\JJ	.	16A\	-cu-	16c#\	-cu-	16a\	-cu-	16ee\	-cu-	.	.	.	.	.
8A\	.	8e\	.	.	.	16a\LL	.	8c#\	-la	8A\	-la	8a\	-la	8ee\	-la	.	.	4a\	.	.
.	.	.	.	8a 8e/	.	16cc#\	.	.	.	.	.	.	.	.	.	.	.	.	.	.
8c#\J	.	8c#\J	.	.	.	16ee\	.	8c#\	De-	8A\	De-	8a\	De-	8ee\	De-	.	.	.	.	.
.	.	.	.	16aJk 16e/	.	16ggn\JJ	.	.	.	.	.	.	.	.	.	.	.	.	.	.
!LO:PB:g=original	!	!	!	!	!	!LO:LB:g=original	!	!	!	!	!	!	!	!	!	!	!	!	!	!
=13	=13	=13	=13	=13	=13	=13	=13	=13	=13	=13	=13	=13	=13	=13	=13	=13	=13	=13	=13	=13
*	*	*	*	*^	*	*	*	*	*	*	*	*	*	*	*	*	*	*	*	*
*	*	*tremolo	*	*	*	*	*	*	*	*	*	*	*	*	*	*	*	*	*	*	*
8d\L	.	8d\L	.	16a/KL	2f#/	.	16ff#\LL	.	8d\	-um	8A\	-um	8f#\	-um	8dd\	-um	2r	2r	1a	2ff#\	1ryy
.	.	.	.	8a/	.	.	16aa\	.	.	.	.	.	.	.	.	.	.	.	.	.	.
8f#\J	.	8d\	.	.	.	.	16dd\	.	8d\	de	8A\	de	8f#\	de	8dd\	de	.	.	.	.	.
.	.	.	.	8a/	.	.	16dd\JJ	.	.	.	.	.	.	.	.	.	.	.	.	.	.
8r	.	8d\	.	.	.	.	16dd\LL	.	8d\	De-	8A\	De-	8f#\	De-	8dd\	De-	.	.	.	.	.
.	.	.	.	8a/	.	.	16ff#\	.	.	.	.	.	.	.	.	.	.	.	.	.	.
8d\	.	8d\J	.	.	.	.	16ff#\	.	8d\	-o	8A\	-o	8f#\	-o	8dd\	-o	.	.	.	.	.
.	.	.	.	16a/Jk	.	.	16aa\JJ	.	.	.	.	.	.	.	.	.	.	.	.	.	.
!	!	!	!	!LO:LB:g=original	!LO:LB:g=original	!	!	!	!	!	!	!	!	!	!	!	!	!	!	!	!
!	!	!	!	!LO:MO:mod=!null:null	!	!	!	!	!	!	!	!	!	!	!	!	!	!	!	!	!
!	!	!	!	!LO:N:vis=8	!	!	!	!	!	!LO:MO:mod=lu-	!	!LO:MO:mod=lu-	!	!LO:MO:mod=lu-	!	!	!	!	!	!LO:SIC:s=2gg	!
8e\L	.	8c#\L	.	16a/KL	2e/	.	16ggKL 16a\	.	4c#\	Lu-	4A\	Lu-	4g\	Lu-	4ee\	lu-	4r	2ee\	.	2ggn\	.
.	.	.	.	8a/	.	.	8gg 8a\	.	.	.	.	.	.	.	.	.	.	.	.	.	.
8c#\	.	8c#\	.	.	.	.	.	.	.	.	.	.	.	.	.	.	.	.	.	.	.
.	.	.	.	8a/	.	.	8gg 8a\	.	.	.	.	.	.	.	.	.	.	.	.	.	.
8A\	.	8c#\	.	.	.	.	.	.	8c#\	-men	8A\	-men	8g\	-men	8ee\	-men	4a/	.	.	.	.
.	.	.	.	8a/	.	.	8gg 8a\	.	.	.	.	.	.	.	.	.	.	.	.	.	.
8c#\J	.	8c#\J	.	.	.	.	.	.	8c#\	de	8A\	de	8g\	de	8ee\	de	.	.	.	.	.
!	!	!	!	!LO:MO:mod=!null:null	!	!	!	!	!	!	!	!	!	!	!	!	!	!	!	!	!
!	!	!	!	!LO:N:vis=8	!	!	!	!	!	!	!	!	!	!	!	!	!	!	!	!	!
.	.	.	.	16a/Jk	.	.	16ggJk 16a\	.	.	.	.	.	.	.	.	.	.	.	.	.	.
=14	=14	=14	=14	=14	=14	=14	=14	=14	=14	=14	=14	=14	=14	=14	=14	=14	=14	=14	=14	=14	=14
!LO:TX:t=P:problem=mixed beam:mod=	!	!	!	!LO:TX:t=P:problem=takt zapisany powtórką:mod=	!	!	!	!	!	!LO:MO:mod=lu-	!	!LO:MO:mod=lu-	!	!LO:MO:mod=lu-	!	!	!	!	!	!	!
8d\L	.	8d\L	.	16a/KL	2f#/	.	16ff#\LL	.	8d\	Lu-	8A\	Lu-	8f#\	Lu-	8dd\	lu-	2dd\	2ff#\	2dd\	2ff#\	1ryy
.	.	.	.	8a/	.	.	16aa\	.	.	.	.	.	.	.	.	.	.	.	.	.	.
8D/J	.	8d\	.	.	.	.	16dd\	.	16d\	-mi-	16A\	-mi-	16f#\	-mi-	16dd\	-mi-	.	.	.	.	.
.	.	.	.	8a/	.	.	16dd\JJ	.	16d\	-ne	16A\	-ne	16f#\	-ne	16dd\	-ne	.	.	.	.	.
!	!	!	!	!	!	!	!	!	!	!	!LO:LB:g=original	!	!	!	!LO:LB:g=original	!	!	!	!	!	!
8r	.	8d\	.	.	.	.	16dd\LL	.	8d\	De-	8A\	De-	8f#\	De-	8dd\	De-	.	.	.	.	.
.	.	.	.	8a/	.	.	16ff#\	.	.	.	.	.	.	.	.	.	.	.	.	.	.
8D/	.	8d\J	.	.	.	.	16ff#\	.	8D/	-um	8A\	-o	8f#\	-um	8dd\	-um	.	.	.	.	.
.	.	.	.	16a/Jk	.	.	16aa\JJ	.	.	.	.	.	.	.	.	.	.	.	.	.	.
!	!	!	!	!LO:MO:mod=!null:null	!	!	!	!	!LO:LB:g=original	!	!	!	!	!	!	!	!	!	!	!	!
!	!	!	!	!LO:N:vis=8	!	!	!	!	!	!	!	!	!	!	!	!	!	!	!	!	!
8C#/L	.	8c#\L	.	16a/KL	2e/	.	16ggKL 16a\	.	4C#/	ve-	4A\	ve-	4g\	ve-	4ee\	ve-	2a/	2ee\	2ee\	2gg\	.
.	.	.	.	8a/	.	.	8gg 8a\	.	.	.	.	.	.	.	.	.	.	.	.	.	.
8E/	.	8c#\	.	.	.	.	.	.	.	.	.	.	.	.	.	.	.	.	.	.	.
.	.	.	.	8a/	.	.	8gg 8a\	.	.	.	.	.	.	.	.	.	.	.	.	.	.
8AA/	.	8c#\	.	.	.	.	.	.	8C#/	-rum	8A\	-ro	8g\	-rum	8ee\	-rum	.	.	.	.	.
.	.	.	.	8a/	.	.	8gg 8a\	.	.	.	.	.	.	.	.	.	.	.	.	.	.
8C#/J	.	8c#\J	.	.	.	.	.	.	8C#/	de	8A\	de	8g\	de	8ee\	de	.	.	.	.	.
!	!	!	!	!LO:MO:mod=!null:null	!	!	!	!	!	!	!	!	!	!	!	!	!	!	!	!	!
!	!	!	!	!LO:N:vis=8	!	!	!	!	!	!	!	!	!	!	!	!	!	!	!	!	!
.	.	.	.	16a/Jk	.	.	16ggJk 16a\	.	.	.	.	.	.	.	.	.	.	.	.	.	.
*	*	*Xtremolo	*	*	*	*	*	*	*	*	*	*	*	*	*	*	*	*	*	*	*
*	*	*	*	*v	*v	*	*	*	*	*	*	*	*	*	*	*	*	*	*	*	*
!	!	!	!	!	!	!	!	!	!	!	!	!LO:LB:g=original	!	!	!	!	!	!LO:LB:g=original	!	!
=15	=15	=15	=15	=15	=15	=15	=15	=15	=15	=15	=15	=15	=15	=15	=15	=15	=15	=15	=15	=15
!	!	!	!	!LO:TX:t=P:problem=mixed beam:mod=	!	!	!	!	!	!	!	!	!	!	!	!	!	!	!	!
8D\L	.	8d\L	.	8aL 8f#/	.	16ff#\LL	.	8D\	De-	8A\	De-	8f#\	De-	8ff#\	De-	4dd\	4ff#\	4.dd\	4.ff#\	1ryy
.	.	.	.	.	.	16ddd\	.	.	.	.	.	.	.	.	.	.	.	.	.	.
8B\	.	8b\	.	8dd\	.	16dd\	.	8B\	-o	8d\	-o	8b\	-o	8ff#\	-o	.	.	.	.	.
.	.	.	.	.	.	16ddd\JJ	.	.	.	.	.	.	.	.	.	.	.	.	.	.
8G\	.	8b\	.	8ee\	.	16ee\LL	.	8G\L	ve-	8d\L	ve-	8b\L	ve-	4ee\	ve-	8r	4ee\	.	.	.
.	.	.	.	.	.	16ddd\	.	.	.	.	.	.	.	.	.	.	.	.	.	.
8A\J	.	8a\J	.	8ee\J	.	16ee\	.	8A\J	.	8c#\J	.	8a\J	.	.	.	8a/	.	8cc#\	8ee\	.
.	.	.	.	.	.	16ccc#\JJ	.	.	.	.	.	.	.	.	.	.	.	.	.	.
!	!	!	!LO:DY:a:t=p.:mod= 	!	!	!	!	!	!	!	!LO:MO:mod=-ro.	!	!LO:MO:mod=-ro.	!	!	!	!LO:TX:a:t=c:mod=	!	!	!
8d\L	.	4d\	p	8ff#L 8a 8d/	.	4ddd 4ff#\	.	4D/	-ro.	8d\	-ro	4a\	-ro	8ff#\	-ro.	8f#/	8dd\	8dd\	4ff#\	.
16D\L	.	.	.	16f#/L	.	.	.	.	.	8r	.	.	.	8r	.	8r	8r	8r	.	.
16E\JJ	.	.	.	16g/JJ	.	.	.	.	.	.	.	.	.	.	.	.	.	.	.	.
!LO:TX:a:i:t=Solo.:mod=	!	!	!	!	!LO:DY:t= 	!	!	!	!	!	!	!	!	!	!	!	!	!	!	!
8D\L	.	16d\LL	.	8f#/L	p	4r	.	4r	.	4r	.	4r	.	4r	.	4r	4r	4r	4r	.
.	.	16e\	.	.	.	.	.	.	.	.	.	.	.	.	.	.	.	.	.	.
8C#\J	.	16d\	.	8e/J	.	.	.	.	.	.	.	.	.	.	.	.	.	.	.	.
.	.	16c#\JJ	.	.	.	.	.	.	.	.	.	.	.	.	.	.	.	.	.	.
!	!	!LO:LB:g=original	!	!	!	!	!	!	!	!	!	!	!	!	!	!LO:LB:g=original	!	!	!	!
=16	=16	=16	=16	=16	=16	=16	=16	=16	=16	=16	=16	=16	=16	=16	=16	=16	=16	=16	=16	=16
!	!	!	!	!	!	!	!	!	!	!LO:MO:mod=!LO&colon;TX&colon;a&colon;t=Solo	!	!	!	!	!	!	!	!	!	!
!	!	!	!LO:DY:t= :mod=%s	!	!LO:DY:t= :mod=%s	!	!LO:DY:a:t=p&colon;:mod=	!	!	!LO:TX:a:i:t=Solo	!	!	!	!LO:TX:a:t=12.:mod=	!	!LO:TX:a:t=12.:mod=	!LO:TX:a:t=12:mod=	!	!LO:TX:a:t=12.:mod=	!
4BB/	.	4B/	p	4d/	p	4ff#\	p	0r	.	4f#\	Ge-	00r	.	00r	.	00r	00r	00r	00r	1ryy
4r	.	4r	.	4r	.	16ee\LL	.	.	.	16e\LL	.	.	.	.	.	.	.	.	.	.
.	.	.	.	.	.	16dd\	.	.	.	16d\JJ	.	.	.	.	.	.	.	.	.	.
.	.	.	.	.	.	16cc#\	.	.	.	16c#\LL	-ni-	.	.	.	.	.	.	.	.	.
.	.	.	.	.	.	16b\JJ	.	.	.	16B\JJ	.	.	.	.	.	.	.	.	.	.
*	*	*	*	*tremolo	*	*	*	*	*	*	*	*	*	*	*	*	*	*	*	*
!	!	!	!	!	!	!LO:LB:g=original	!	!	!	!	!	!	!	!	!	!	!	!	!	!
8C#/L	.	8c#\L	.	8f#/L	.	8a#X\L	.	.	.	8A#X\L	-tum	.	.	.	.	.	.	.	.	.
8D/J	.	8d\	.	8f#/	.	8b\	.	.	.	8B\J	.	.	.	.	.	.	.	.	.	.
8A#X\L	.	8A#X\	.	8f#/	.	8cc#\	.	.	.	8c#\L	non	.	.	.	.	.	.	.	.	.
8B\J	.	8B\J	.	8f#/J	.	8dd\J	.	.	.	8d\J	.	.	.	.	.	.	.	.	.	.
!	!	!	!	!LO:MO:mod=*null:null	!	!	!	!	!	!	!	!	!	!	!	!	!	!	!	!
*	*	*	*	*Xtremolo	*	*	*	*	*	*	*	*	*	*	*	*	*	*	*	*
=17	=17	=17	=17	=17	=17	=17	=17	=17	=17	=17	=17	=17	=17	=17	=17	=17	=17	=17	=17	=17
!	!	!LO:SIC:s=4A#\	!	!	!	!	!	!	!	!	!	!	!	!	!	!	!	!	!	!
!!LO:MO:ori
4c#\	.	4A\	.	2f#/	.	4ee\	.	.	.	4.e\	fac-	.	.	.	.	.	.	.	.	1ryy
4A#X\	.	4c#\	.	.	.	8ee\L	.	.	.	.	.	.	.	.	.	.	.	.	.	.
.	.	.	.	.	.	16ff#\L	.	.	.	16f#\LL	.	.	.	.	.	.	.	.	.	.
.	.	.	.	.	.	16ee\JJ	.	.	.	16e\JJ	.	.	.	.	.	.	.	.	.	.
!!LO:MO:mod
!! 4c#\	.	4A\	.	8f#L	.	4ee\	.	.	.	4.e\	fac-	.	.	.	.	.	.	.	.	1ryy
!! .	.	.	.	8f#	.	.	.	.	.	.	.	.	.	.	.	.	.	.	.	.
!! 4A#X\	.	4c#\	.	8f#	.	8ee\L	.	.	.	.	.	.	.	.	.	.	.	.	.	.
!! .	.	.	.	8f#J	.	16ff#\L	.	.	.	16f#\LL	.	.	.	.	.	.	.	.	.	.
!! .	.	.	.	.	.	16ee\JJ	.	.	.	16e\JJ	.	.	.	.	.	.	.	.	.	.
!! *	*	*	*	*Xtremolo	*	*	*	*	*	*	*	*	*	*	*	*	*	*	*	*
!!LO:MO:end
8B\L	.	8B\L	.	8f#/L	.	8dd\L	.	.	.	8d\	-tum	.	.	.	.	.	.	.	.	.
8c#\	.	8c#\J	.	16e/L	.	8cc#\	.	.	.	8r	.	.	.	.	.	.	.	.	.	.
.	.	.	.	16f#/JJ	.	.	.	.	.	.	.	.	.	.	.	.	.	.	.	.
8d\	.	8d\L	.	8e/L	.	8b\	.	.	.	8r	.	.	.	.	.	.	.	.	.	.
8B\J	.	8B\J	.	8g/J	.	8dd\J	.	.	.	8d\	non	.	.	.	.	.	.	.	.	.
=18	=18	=18	=18	=18	=18	=18	=18	=18	=18	=18	=18	=18	=18	=18	=18	=18	=18	=18	=18	=18
4E\	.	4e\	.	4g#X/	.	4dd\	.	1r	.	4d\	fac-	.	.	.	.	.	.	.	.	1ryy
!	!	!	!	!LO:SIC:s=4g# 4e#	!	!	!	!	!	!	!	!	!	!	!	!	!	!	!	!
4E#X\	.	4c#\	.	4a 4f#/	.	8cc#\L	.	.	.	8c#\L	.	.	.	.	.	.	.	.	.	.
.	.	.	.	.	.	8b\J	.	.	.	8B\J	.	.	.	.	.	.	.	.	.	.
!	!	!	!	!LO:SIC:s=4a# 4f#	!	!LO:TX:t=P:problem=mixed beam:mod=	!	!	!	!LO:LB:g=original	!LO:MO:mod=-tum	!	!	!	!	!	!	!	!	!
8F#\	.	8c#\	.	4a 4f#/	.	16a#X\LL	.	.	.	8A#X\	-tum.	.	.	.	.	.	.	.	.	.
.	.	.	.	.	.	16ff#\	.	.	.	.	.	.	.	.	.	.	.	.	.	.
8r	.	8r	.	.	.	16f#/	.	.	.	8r	.	.	.	.	.	.	.	.	.	.
.	.	.	.	.	.	16f#/JJ	.	.	.	.	.	.	.	.	.	.	.	.	.	.
4r	.	4r	.	4r	.	16f#/LL	.	.	.	4r	.	.	.	.	.	.	.	.	.	.
.	.	.	.	.	.	16a#/JJ	.	.	.	.	.	.	.	.	.	.	.	.	.	.
.	.	.	.	.	.	16cc#\LL	.	.	.	.	.	.	.	.	.	.	.	.	.	.
.	.	.	.	.	.	16ff#\JJ	.	.	.	.	.	.	.	.	.	.	.	.	.	.
!LO:LB:g=original	!	!	!	!	!	!	!	!	!	!	!	!	!	!	!	!	!	!	!	!
=19	=19	=19	=19	=19	=19	=19	=19	=19	=19	=19	=19	=19	=19	=19	=19	=19	=19	=19	=19	=19
*	*	*tremolo	*	*	*	*	*	*	*	*	*	*	*	*	*	*	*	*	*	*
8A#X\L	.	8c#\L	.	16f#/KL	.	16eeKL 16f#\	.	2r	.	8c#\	con-	.	.	.	.	.	.	.	.	1ryy
.	.	.	.	8f#/	.	8ee 8f#\	.	.	.	.	.	.	.	.	.	.	.	.	.	.
8c#\	.	8c#\	.	.	.	.	.	.	.	8c#\	-sub-	.	.	.	.	.	.	.	.	.
.	.	.	.	8f#/	.	8ee 8f#\	.	.	.	.	.	.	.	.	.	.	.	.	.	.
8F#\	.	8c#\	.	.	.	.	.	.	.	16c#\LL	-stan-	.	.	.	.	.	.	.	.	.
!	!	!	!	!	!	!	!	!	!	!LO:SIC:s=16d	!	!	!	!	!	!	!	!	!	!
.	.	.	.	8f#/	.	8ee 8f#\	.	.	.	16d\JJ	.	.	.	.	.	.	.	.	.	.
!	!	!	!	!	!	!	!	!	!	!LO:SIC:s=16e\JJ	!	!	!	!	!	!	!	!	!	!
8A#\J	.	8c#\J	.	.	.	.	.	.	.	16e\	.	.	.	.	.	.	.	.	.	.
.	.	.	.	16f#/Jk	.	16eeJk 16f#\	.	.	.	16c#\	-ti-	.	.	.	.	.	.	.	.	.
!	!	!	!	!	!	!	!	!LO:TX:a:i:t=Solo	!	!	!	!	!	!	!	!	!	!	!	!
8B\L	.	8B\L	.	16f#/KL	.	16dd\LL	.	8B\	Con-	16d\LL	-a-	.	.	.	.	.	.	.	.	.
.	.	.	.	8f#/	.	16bb\	.	.	.	16c#\JJ	.	.	.	.	.	.	.	.	.	.
8d\J	.	8B\	.	.	.	16b\	.	8B\	-sub-	8B\	-lem	.	.	.	.	.	.	.	.	.
.	.	.	.	8f#/	.	16b\JJ	.	.	.	.	.	.	.	.	.	.	.	.	.	.
8r	.	8B\	.	.	.	16b\LL	.	8B\	-stan-	4r	.	.	.	.	.	.	.	.	.	.
.	.	.	.	8f#/	.	16dd\	.	.	.	.	.	.	.	.	.	.	.	.	.	.
8B\	.	8B\J	.	.	.	16dd\	.	8B\	-ti-	.	.	.	.	.	.	.	.	.	.	.
.	.	.	.	16f#/Jk	.	16ff#\JJ	.	.	.	.	.	.	.	.	.	.	.	.	.	.
!	!	!	!	!LO:LB:g=original	!	!	!	!	!	!	!	!	!	!	!	!	!	!	!	!
=20	=20	=20	=20	=20	=20	=20	=20	=20	=20	=20	=20	=20	=20	=20	=20	=20	=20	=20	=20	=20
8A#X\L	.	8c#\L	.	16f#/KL	.	16eeKL 16f#\	.	16A#X\LL	-a-	4c#\	Pa-	00r	.	00r	.	00r	00r	00r	00r	1ryy
.	.	.	.	8f#/	.	8ee 8f#\	.	16G\JJ	.	.	.	.	.	.	.	.	.	.	.	.
8c#\	.	8c#\	.	.	.	.	.	8F#\	-lem	.	.	.	.	.	.	.	.	.	.	.
.	.	.	.	8f#/	.	8ee 8f#\	.	.	.	.	.	.	.	.	.	.	.	.	.	.
8F#\	.	8c#\	.	.	.	.	.	4r	.	16c#\LL	.	.	.	.	.	.	.	.	.	.
.	.	.	.	8f#/	.	8ee 8f#\	.	.	.	16d\	.	.	.	.	.	.	.	.	.	.
8A#\J	.	8c#\J	.	.	.	.	.	.	.	16e\	.	.	.	.	.	.	.	.	.	.
.	.	.	.	16f#/Jk	.	16eeJk 16f#\	.	.	.	16c#\JJ	.	.	.	.	.	.	.	.	.	.
!	!	!	!	!	!	!LO:PB:g=original	!	!	!LO:MO:mod=con-	!	!	!	!	!	!	!	!	!	!	!
8B\L	.	8B\L	.	16f#/KL	.	8dd\L	.	8B\	Con-	8d\	-tri	.	.	.	.	.	.	.	.	.
.	.	.	.	8f#/	.	.	.	.	.	.	.	.	.	.	.	.	.	.	.	.
8d\J	.	8B\	.	.	.	32dd\LL	.	8B\	-sub-	8r	.	.	.	.	.	.	.	.	.	.
.	.	.	.	.	.	32cc#\	.	.	.	.	.	.	.	.	.	.	.	.	.	.
.	.	.	.	8f#/	.	32dd\	.	.	.	.	.	.	.	.	.	.	.	.	.	.
.	.	.	.	.	.	32ee\JJJ	.	.	.	.	.	.	.	.	.	.	.	.	.	.
*	*	*	*	*	*	*tremolo	*	*	*	*	*	*	*	*	*	*	*	*	*	*
8r	.	8B\	.	.	.	16dd\LL	.	8B\	-stan-	4r	.	.	.	.	.	.	.	.	.	.
.	.	.	.	8f#/	.	16dd\	.	.	.	.	.	.	.	.	.	.	.	.	.	.
8B\	.	8B\J	.	.	.	16dd\	.	8B\	-ti-	.	.	.	.	.	.	.	.	.	.	.
.	.	.	.	16f#/Jk	.	16dd\JJ	.	.	.	.	.	.	.	.	.	.	.	.	.	.
*	*	*	*	*	*	*Xtremolo	*	*	*	*	*	*	*	*	*	*	*	*	*	*
!	!	!	!	!	!	!	!	!LO:LB:g=original	!	!	!	!	!	!	!	!	!	!	!	!
=21	=21	=21	=21	=21	=21	=21	=21	=21	=21	=21	=21	=21	=21	=21	=21	=21	=21	=21	=21	=21
!LO:SIC:s=8G#L	!	!	!	!	!	!	!	!	!	!	!	!	!	!	!	!	!	!	!	!
8G\L	.	8B/L	.	16e/KL	.	16dd\KL	.	16G#X\LL	-a-	4B\	per	.	.	.	.	.	.	.	.	1ryy
.	.	.	.	8e/	.	8dd\	.	16F#\JJ	.	.	.	.	.	.	.	.	.	.	.	.
8B\	.	8B/	.	.	.	.	.	8E\	-lem	.	.	.	.	.	.	.	.	.	.	.
.	.	.	.	8e/	.	8dd\	.	.	.	.	.	.	.	.	.	.	.	.	.	.
8E\	.	8B/	.	.	.	.	.	4r	.	16B\LL	.	.	.	.	.	.	.	.	.	.
.	.	.	.	8e/	.	8dd\	.	.	.	16c#\	.	.	.	.	.	.	.	.	.	.
!LO:SIC:s=8G#J	!	!	!	!	!	!	!	!	!	!	!	!	!	!	!	!	!	!	!	!
8G\J	.	8B/J	.	.	.	.	.	.	.	16d\	.	.	.	.	.	.	.	.	.	.
.	.	.	.	16e/Jk	.	16dd\Jk	.	.	.	16B\JJ	.	.	.	.	.	.	.	.	.	.
!	!	!LO:LB:g=original	!	!	!	!	!	!	!	!	!	!	!	!	!	!	!	!	!	!
8A\L	.	8A/L	.	16e/KL	.	16cc#\LL	.	8A\	Pa-	4c#\	quem	.	.	.	.	.	.	.	.	.
.	.	.	.	8e/	.	16aa\	.	.	.	.	.	.	.	.	.	.	.	.	.	.
8c#\J	.	8A/	.	.	.	16a\	.	8A\	-tri	.	.	.	.	.	.	.	.	.	.	.
.	.	.	.	8e/	.	16a\JJ	.	.	.	.	.	.	.	.	.	.	.	.	.	.
8r	.	8A/	.	.	.	16a\LL	.	8A\	per	4r	.	.	.	.	.	.	.	.	.	.
.	.	.	.	8e/	.	16cc#\	.	.	.	.	.	.	.	.	.	.	.	.	.	.
8A\	.	8A/J	.	.	.	16cc#\	.	8A\	quem	.	.	.	.	.	.	.	.	.	.	.
.	.	.	.	16e/Jk	.	16ee\JJ	.	.	.	.	.	.	.	.	.	.	.	.	.	.
!	!	!	!	!	!	!	!	!	!	!LO:LB:g=original	!	!	!	!	!	!	!	!	!	!
=22	=22	=22	=22	=22	=22	=22	=22	=22	=22	=22	=22	=22	=22	=22	=22	=22	=22	=22	=22	=22
!LO:SIC:s=8G#L	!	!	!	!	!	!	!	!	!	!	!	!	!	!	!	!	!	!	!	!
8G\L	.	8B/L	.	16e/KL	.	16dd\KL	.	16G#X\	om-	4B\	om-	.	.	.	.	.	.	.	.	1ryy
.	.	.	.	8e/	.	8dd\	.	16F#\	-ni-	.	.	.	.	.	.	.	.	.	.	.
8B\	.	8B/	.	.	.	.	.	8E\	-a	.	.	.	.	.	.	.	.	.	.	.
.	.	.	.	8e/	.	8dd\	.	.	.	.	.	.	.	.	.	.	.	.	.	.
8E\	.	8B/	.	.	.	.	.	4r	.	16B\LL	.	.	.	.	.	.	.	.	.	.
.	.	.	.	8e/	.	8dd\	.	.	.	16c#\JJ	.	.	.	.	.	.	.	.	.	.
!LO:SIC:s=8G#J	!	!	!	!	!	!	!	!	!	!	!	!	!	!	!	!	!	!	!	!
8G\J	.	8B/J	.	.	.	.	.	.	.	16d\LL	-ni-	.	.	.	.	.	.	.	.	.
.	.	.	.	16e/Jk	.	16dd\Jk	.	.	.	16B\JJ	.	.	.	.	.	.	.	.	.	.
!	!	!	!	!	!	!	!	!	!LO:MO:mod=per	!	!	!	!	!	!	!	!	!	!	!
8A\L	.	8A/L	.	16e/KL	.	16cc#\LL	.	4.A\	p(er)	8c#\	-a	.	.	.	.	.	.	.	.	.
.	.	.	.	8e/	.	16ee\	.	.	.	.	.	.	.	.	.	.	.	.	.	.
8c#\J	.	8A/	.	.	.	16a\	.	.	.	8r	.	.	.	.	.	.	.	.	.	.
.	.	.	.	8e/	.	16a\JJ	.	.	.	.	.	.	.	.	.	.	.	.	.	.
8r	.	8A/	.	.	.	16a\LL	.	.	.	4r	.	.	.	.	.	.	.	.	.	.
.	.	.	.	8e/	.	16cc#\	.	.	.	.	.	.	.	.	.	.	.	.	.	.
8c#\	.	8A/J	.	.	.	16ee\	.	8Gn\	quem	.	.	.	.	.	.	.	.	.	.	.
!	!	!	!	!	!	!LO:SIC:s=16gJJ	!	!	!	!	!	!	!	!	!	!	!	!	!	!
.	.	.	.	16e/Jk	.	16gn\JJ	.	.	.	.	.	.	.	.	.	.	.	.	.	.
*	*	*Xtremolo	*	*	*	*	*	*	*	*	*	*	*	*	*	*	*	*	*	*
=23	=23	=23	=23	=23	=23	=23	=23	=23	=23	=23	=23	=23	=23	=23	=23	=23	=23	=23	=23	=23
8d\L	.	8A/L	.	16d/KL	.	16f#/KL	.	4F#\	om-	4r	.	.	.	.	.	.	.	.	.	1ryy
.	.	.	.	8d/	.	8f#/	.	.	.	.	.	.	.	.	.	.	.	.	.	.
8d\	.	8A/	.	.	.	.	.	.	.	.	.	.	.	.	.	.	.	.	.	.
.	.	.	.	8d/	.	8f#/	.	.	.	.	.	.	.	.	.	.	.	.	.	.
!	!	!	!	!	!	!	!	!	!	!LO:MO:mod=*null:null	!	!	!	!	!	!	!	!	!	!
*	*	*	*	*	*	*	*	*	*	*2\right	*	*	*	*	*	*	*	*	*	*
8B\	.	8B/	.	.	.	.	.	8F#\	-ni-	2d\	fa-	.	.	.	.	.	.	.	.	.
.	.	.	.	8d/	.	8f#/	.	.	.	.	.	.	.	.	.	.	.	.	.	.
8B\J	.	8B/J	.	.	.	.	.	8B\	-a	.	.	.	.	.	.	.	.	.	.	.
.	.	.	.	16d/Jk	.	16f#/Jk	.	.	.	.	.	.	.	.	.	.	.	.	.	.
8G\L	.	2B/	.	16d/KL	.	16e/KL	.	4.B\	fa-	.	.	.	.	.	.	.	.	.	.	.
.	.	.	.	8d/	.	8e/	.	.	.	.	.	.	.	.	.	.	.	.	.	.
8G\	.	.	.	.	.	.	.	.	.	.	.	.	.	.	.	.	.	.	.	.
.	.	.	.	8d/	.	8e/	.	.	.	.	.	.	.	.	.	.	.	.	.	.
8G#X\	.	.	.	.	.	.	.	.	.	4d\	-cta	.	.	.	.	.	.	.	.	.
.	.	.	.	8d/	.	8e/	.	.	.	.	.	.	.	.	.	.	.	.	.	.
8G#\J	.	.	.	.	.	.	.	8B\	-cta	.	.	.	.	.	.	.	.	.	.	.
.	.	.	.	16d/Jk	.	16e/Jk	.	.	.	.	.	.	.	.	.	.	.	.	.	.
!	!	!	!	!	!	!LO:LB:g=original	!	!	!	!	!	!	!	!	!	!	!	!	!	!
=24	=24	=24	=24	=24	=24	=24	=24	=24	=24	=24	=24	=24	=24	=24	=24	=24	=24	=24	=24	=24
!	!	!	!LO:MO:mod=!LO&colon;DY&colon;ed=brack	!	!LO:MO:mod=!LO&colon;DY&colon;ed=brack	!	!LO:MO:mod=!LO&colon;DY&colon;ed=brack	!	!	!	!	!	!	!	!	!	!	!	!	!
!	!LO:DY:a:t=pp.:mod=	!	!LO:DY:t= :mod=%s	!	!LO:DY:t= :mod=%s	!	!LO:DY:t= :mod=%s	!	!	!	!	!	!	!	!	!	!	!	!	!
8A\	pp	8A/	pp	8c#/	pp	8e/L	pp	8A\	sunt	8c#\	sunt	00r	.	00r	.	00r	00r	00r	00r	1ryy
8r	.	8r	.	8r	.	8a/	.	8r	.	8r	.	.	.	.	.	.	.	.	.	.
4r	.	4r	.	4r	.	8a/	.	4r	.	4r	.	.	.	.	.	.	.	.	.	.
.	.	.	.	.	.	8a/J	.	.	.	.	.	.	.	.	.	.	.	.	.	.
.	.	.	.	.	.	16qqg#X/LL	.	.	.	.	.	.	.	.	.	.	.	.	.	.
.	.	.	.	.	.	16qqb/JJ	.	.	.	.	.	.	.	.	.	.	.	.	.	.
8r	.	8r	.	8r	.	4a/	.	2r	.	2r	.	.	.	.	.	.	.	.	.	.
8B\L	.	8B/L	.	8eL 8d/	.	.	.	.	.	.	.	.	.	.	.	.	.	.	.	.
8B\	.	8B/	.	8e 8d/	.	8g#/	.	.	.	.	.	.	.	.	.	.	.	.	.	.
8B\J	.	8B/J	.	8eJ 8d/	.	8r	.	.	.	.	.	.	.	.	.	.	.	.	.	.
!LO:LB:g=original	!	!	!	!LO:LB:g=original	!	!	!	!LO:LB:g=original	!	!	!	!	!	!	!	!	!	!	!	!
=25	=25	=25	=25	=25	=25	=25	=25	=25	=25	=25	=25	=25	=25	=25	=25	=25	=25	=25	=25	=25
8c#\	.	8A/	.	8e/	.	8r	.	0r	.	0r	.	.	.	.	.	.	.	.	.	1ryy
8r	.	8r	.	8r	.	8gn/L	.	.	.	.	.	.	.	.	.	.	.	.	.	.
4r	.	4r	.	4r	.	8g/	.	.	.	.	.	.	.	.	.	.	.	.	.	.
.	.	.	.	.	.	8g/J	.	.	.	.	.	.	.	.	.	.	.	.	.	.
.	.	.	.	.	.	16qqf#/LL	.	.	.	.	.	.	.	.	.	.	.	.	.	.
.	.	.	.	.	.	16qqa/JJ	.	.	.	.	.	.	.	.	.	.	.	.	.	.
8r	.	8r	.	8r	.	4g/	.	.	.	.	.	.	.	.	.	.	.	.	.	.
8d\L	.	8d\L	.	8A/L	.	.	.	.	.	.	.	.	.	.	.	.	.	.	.	.
8d\	.	8d\	.	8A/	.	8f#/	.	.	.	.	.	.	.	.	.	.	.	.	.	.
8d\J	.	8d\J	.	8A/J	.	8r	.	.	.	.	.	.	.	.	.	.	.	.	.	.
=26	=26	=26	=26	=26	=26	=26	=26	=26	=26	=26	=26	=26	=26	=26	=26	=26	=26	=26	=26	=26
8B\	.	8d\	.	8d/	.	8r	.	.	.	.	.	.	.	.	.	.	.	.	.	1ryy
8r	.	8r	.	8r	.	8f#/L	.	.	.	.	.	.	.	.	.	.	.	.	.	.
4r	.	4r	.	4r	.	8f#/	.	.	.	.	.	.	.	.	.	.	.	.	.	.
.	.	.	.	.	.	8f#/J	.	.	.	.	.	.	.	.	.	.	.	.	.	.
!	!	!LO:LB:g=original	!	!	!	!	!	!	!	!	!	!	!	!	!	!	!	!	!	!
8r	.	4d\	.	2B/	.	8f#/L	.	.	.	.	.	.	.	.	.	.	.	.	.	.
8G\	.	.	.	.	.	16g/L	.	.	.	.	.	.	.	.	.	.	.	.	.	.
.	.	.	.	.	.	16f#/JJ	.	.	.	.	.	.	.	.	.	.	.	.	.	.
4G#X\	.	4B\	.	.	.	8e/L	.	.	.	.	.	.	.	.	.	.	.	.	.	.
.	.	.	.	.	.	8d/J	.	.	.	.	.	.	.	.	.	.	.	.	.	.
=27	=27	=27	=27	=27	=27	=27	=27	=27	=27	=27	=27	=27	=27	=27	=27	=27	=27	=27	=27	=27
8A\L	.	8A\L	.	8A/L	.	8c#/L	.	1r	.	1r	.	.	.	.	.	.	.	.	.	1ryy
8B\	.	8B\	.	8A/	.	8d/J	.	.	.	.	.	.	.	.	.	.	.	.	.	.
8c#\	.	8c#\	.	8A/	.	8e/L	.	.	.	.	.	.	.	.	.	.	.	.	.	.
8A\J	.	8c#\J	.	8e/J	.	16a/L	.	.	.	.	.	.	.	.	.	.	.	.	.	.
.	.	.	.	.	.	16g/JJ	.	.	.	.	.	.	.	.	.	.	.	.	.	.
!	!	!	!	!LO:SIC:s=8dL	!	!	!	!	!	!	!	!	!	!	!	!	!	!	!	!
8d\L	.	8d\L	.	8c#/L	.	8f#/L	.	.	.	.	.	.	.	.	.	.	.	.	.	.
!	!	!	!LO:DY:a:t= 	!	!	!	!	!	!	!	!	!	!	!	!	!	!	!	!	!
8A\J	.	8A\J	f	8c#/J	.	8e/J	.	.	.	.	.	.	.	.	.	.	.	.	.	.
16A|\LL	.	16a\LL	.	4r	.	4r	.	.	.	.	.	.	.	.	.	.	.	.	.	.
16Gn|\	.	16g\	.	.	.	.	.	.	.	.	.	.	.	.	.	.	.	.	.	.
16F#|\	.	16f#\	.	.	.	.	.	.	.	.	.	.	.	.	.	.	.	.	.	.
16E|\JJ	.	16e\JJ	.	.	.	.	.	.	.	.	.	.	.	.	.	.	.	.	.	.
=28	=28	=28	=28	=28	=28	=28	=28	=28	=28	=28	=28	=28	=28	=28	=28	=28	=28	=28	=28	=28
!!LO:TX:a:t= :mod=Tutti
!LO:TX:a:i:t=Tutti.:mod=	!	!LO:DY:t= :mod=%s	!	!	!LO:DY:b:t=for.:mod=	!	!LO:DY:a:t=for:mod=	!	!	!	!	!	!	!	!	!	!	!	!	!
4D\	.	4d\	f	4f# 4A/	f	4dd 4f#\	f	4d\	Cre-	4d\	Cre-	4a\	Cre-	4ff#\	Cre-	4f#/	4dd\	4dd\	4ff#\	1ryy
4d\	.	4d\	.	4f# 4A/	.	4dd 4f#\	.	4D/	-do	4d\	-do	4a\	-do	4ff#\	-do	4f#/	4dd\	4dd\	4ff#\	.
!	!	!	!	!	!	!LO:LB:g=original	!	!	!	!	!	!	!	!	!	!	!	!	!	!
4r	.	4r	.	4r	.	16dd\LL	.	4r	.	4r	.	4r	.	4r	.	4r	4r	4r	4r	.
.	.	.	.	.	.	16ff#\	.	.	.	.	.	.	.	.	.	.	.	.	.	.
.	.	.	.	.	.	16aa\	.	.	.	.	.	.	.	.	.	.	.	.	.	.
.	.	.	.	.	.	16ddd\JJ	.	.	.	.	.	.	.	.	.	.	.	.	.	.
8r	.	8r	.	8r	.	16ddd\LL	.	8r	.	8r	.	8r	.	8r	.	8r	8r	8r	8r	.
.	.	.	.	.	.	16ccc#\	.	.	.	.	.	.	.	.	.	.	.	.	.	.
!	!	!	!	!	!	!	!	!	!	!	!	!	!	!	!LO:MO:mod=qui	!	!	!	!	!
8d\	.	8d\	.	8f#/	.	16bb\	.	8d\	qui	8d\	qui	8a\	qui	8ff#\	qvi	8dd\	8ff#\	8dd\	8ff#\	.
.	.	.	.	.	.	16aa\JJ	.	.	.	.	.	.	.	.	.	.	.	.	.	.
=29	=29	=29	=29	=29	=29	=29	=29	=29	=29	=29	=29	=29	=29	=29	=29	=29	=29	=29	=29	=29
*tremolo	*	*tremolo	*	*tremolo	*	*	*	*	*	*	*	*	*	*	*	*tremolo	*tremolo	*	*	*
!	!	!	!	!	!	!LO:TX:t=P:problem=mixed beam:mod=	!	!	!	!	!	!	!LO:MO:mod=prop-	!	!LO:MO:mod=prop-	!	!	!	!	!
8c#\L	.	16c#\LL	.	16e/LL	.	16aa\LL	.	4c#\	prop-	4A\	prop-	4g\	p(ro)p-	4ee\	p(ro)p-	8a/L	8ee\L	2ee\	2gg\	1ryy
.	.	16e\	.	16g/	.	16a/	.	.	.	.	.	.	.	.	.	.	.	.	.	.
8c#\	.	16c#\	.	16e/	.	16aa\	.	.	.	.	.	.	.	.	.	8a/	8ee\	.	.	.
.	.	16e\	.	16g/	.	16aa\JJ	.	.	.	.	.	.	.	.	.	.	.	.	.	.
*	*	*	*	*	*	*tremolo	*	*	*	*	*	*	*	*	*	*	*	*	*	*
8c#\	.	16c#\	.	16e/	.	16aa\LL	.	8c#\	-ter	8A\	-ter	8g\	-ter	8ee\	-ter	8a/	8ee\	.	.	.
.	.	16e\	.	16g/	.	16aa\	.	.	.	.	.	.	.	.	.	.	.	.	.	.
8c#\J	.	16c#\	.	16e/	.	16aa\	.	8c#\	nos	8A\	nos	8g\	nos	8ee\	nos	8a/J	8ee\J	.	.	.
.	.	16e\JJ	.	16g/JJ	.	16aa\JJ	.	.	.	.	.	.	.	.	.	.	.	.	.	.
*	*	*	*	*	*	*Xtremolo	*	*	*	*	*	*	*	*	*	*Xtremolo	*Xtremolo	*	*	*
8d\L	.	16d\LL	.	16A/LL	.	16aa\LL	.	8.d\	ho-	8.A\	ho-	8.f#\	ho-	8.dd\	ho-	4dd\	4ff#\	4dd\	4ff#\	.
.	.	16f#\	.	16f#/	.	16dd\	.	.	.	.	.	.	.	.	.	.	.	.	.	.
8d\	.	16d\	.	16A/	.	16ff#\	.	.	.	.	.	.	.	.	.	.	.	.	.	.
.	.	16f#\	.	16f#/	.	16aa\JJ	.	16d\	-mi-	16A\	-mi-	16f#\	-mi-	16dd\	-mi-	.	.	.	.	.
8d\	.	16d\	.	16A/	.	16ddd\LL	.	8d\	-nes	8A\	-nes	8f#\	-nes	8dd\	-nes	8r	8r	8r	8r	.
.	.	16f#\	.	16f#/	.	16ccc#\	.	.	.	.	.	.	.	.	.	.	.	.	.	.
8d\J	.	16d\	.	16A/	.	16bb\	.	8d\	et	8A\	et	8f#\	et	8dd\	et	8dd\	8ff#\	8dd\	8ff#\	.
.	.	16f#\JJ	.	16f#/JJ	.	16aa\JJ	.	.	.	.	.	.	.	.	.	.	.	.	.	.
!	!	!	!	!	!	!	!	!	!	!LO:LB:g=original	!	!LO:LB:g=original	!	!LO:LB:g=original	!	!	!	!	!LO:LB:g=original	!
=30	=30	=30	=30	=30	=30	=30	=30	=30	=30	=30	=30	=30	=30	=30	=30	=30	=30	=30	=30	=30
*	*	*	*	*	*	*	*	*	*	*	*	*	*	*	*	*tremolo	*tremolo	*	*	*
!	!	!	!	!	!	!LO:TX:t=P:problem=mixed beam:mod=	!	!	!	!	!	!	!LO:MO:mod=prop-	!	!LO:MO:mod=prop-	!	!	!	!	!
8c#\L	.	16c#\LL	.	16e/LL	.	16aa\LL	.	4c#\	prop-	4A\	prop-	4g\	p(ro)p-	4ee\	p(ro)p-	8a/L	8ee\L	2ee\	2gg\	1ryy
.	.	16e\	.	16g/	.	16a/	.	.	.	.	.	.	.	.	.	.	.	.	.	.
8c#\	.	16c#\	.	16e/	.	16aa\	.	.	.	.	.	.	.	.	.	8a/	8ee\	.	.	.
.	.	16e\	.	16g/	.	16aa\JJ	.	.	.	.	.	.	.	.	.	.	.	.	.	.
*	*	*	*	*	*	*tremolo	*	*	*	*	*	*	*	*	*	*	*	*	*	*
8c#\	.	16c#\	.	16e/	.	16aa\LL	.	4c#\	-ter	4A\	-ter	4g\	-ter	4ee\	-ter	8a/	8ee\	.	.	.
.	.	16e\	.	16g/	.	16aa\	.	.	.	.	.	.	.	.	.	.	.	.	.	.
8c#\J	.	16c#\	.	16e/	.	16aa\	.	.	.	.	.	.	.	.	.	8a/J	8ee\J	.	.	.
.	.	16e\JJ	.	16g/JJ	.	16aa\JJ	.	.	.	.	.	.	.	.	.	.	.	.	.	.
*Xtremolo	*	*Xtremolo	*	*	*	*Xtremolo	*	*	*	*	*	*	*	*	*	*Xtremolo	*Xtremolo	*	*	*
!	!	!	!	!	!	!	!	!	!	!	!	!	!	!	!	!	!LO:MO:mod=4dd	!	!	!
8d\L	.	8d\L	.	16A/LL	.	16aa\LL	.	4d\	nos-	4A\	nos-	4f#\	nos-	4dd\	nos-	4dd\	4ryy	4dd\	4ff#\	.
.	.	.	.	16f#/	.	16dd\	.	.	.	.	.	.	.	.	.	.	.	.	.	.
8d\	.	8d\	.	16A/	.	16ff#\	.	.	.	.	.	.	.	.	.	.	.	.	.	.
.	.	.	.	16f#/	.	16aa\JJ	.	.	.	.	.	.	.	.	.	.	.	.	.	.
!	!	!	!	!	!	!	!	!	!	!	!LO:MO:mod=-tram	!	!	!	!	!	!	!	!	!
8F#\	.	8A\	.	16A/	.	16ddd\LL	.	8d\	-tram	8A\	-tra(m)	8f#\	-tram	8dd\	-tram	8r	8r	8r	4r	.
.	.	.	.	16f#/	.	16ccc#\	.	.	.	.	.	.	.	.	.	.	.	.	.	.
!	!	!	!	!	!	!	!	!	!LO:MO:mod=sa-	!	!	!	!	!	!	!	!	!	!	!
8F#\J	.	8A\J	.	16A/	.	16bb\	.	8F#\	Sa-	8A\	sa-	8f#\	Sa-	8dd\	sa-	8dd\	8dd\	8a/	.	.
.	.	.	.	16f#/JJ	.	16aa\JJ	.	.	.	.	.	.	.	.	.	.	.	.	.	.
!	!	!LO:LB:g=original	!	!	!	!	!	!	!	!	!	!	!	!	!	!	!	!	!	!
=31	=31	=31	=31	=31	=31	=31	=31	=31	=31	=31	=31	=31	=31	=31	=31	=31	=31	=31	=31	=31
*	*	*	*	*	*	*^	*	*	*	*	*	*	*	*	*	*	*	*	*	*
!	!	!	!	!	!	!	!	!	!	!	!	!	!LO:MO:mod=*null:null	!	!LO:MO:mod=*null:null	!	!	!	!	!	!
*	*	*	*	*	*	*	*tremolo	*	*	*	*	*	*2\right	*	*2\right	*	*	*	*	*	*
!	!	!	!	!	!	!	!	!	!	!	!	!	!	!	!	!	!	!	!LO:SIC:s=2b	!	!
8G\L	.	8B\L	.	16e/LL	.	2ryyyy	16dd\LL	.	8G\L	-lu-	2B\	-lu-	2e\	-lu-	2dd\	-lu-	4ee\	4ee\	2cc#\	2dd\	1ryy
.	.	.	.	16b/	.	.	16dd\	.	.	.	.	.	.	.	.	.	.	.	.	.	.
16B\L	.	16b\L	.	16e/	.	.	16dd\	.	16B\L	.	.	.	.	.	.	.	.	.	.	.	.
16A\JJ	.	16a\JJ	.	16b/	.	.	16dd\	.	16A\JJ	.	.	.	.	.	.	.	.	.	.	.	.
!	!	!	!	!	!	!	!	!	!LO:LB:g=original	!	!	!	!	!	!	!	!	!	!	!	!
8G\L	.	8g\L	.	16e/	.	.	16dd\	.	8G\	-tem	.	.	.	.	.	.	4r	4r	.	.	.
.	.	.	.	16b/	.	.	16dd\	.	.	.	.	.	.	.	.	.	.	.	.	.	.
8G\J	.	8g\J	.	16e/	.	.	16dd\	.	8G\	de-	.	.	.	.	.	.	.	.	.	.	.
.	.	.	.	16b/JJ	.	.	16dd\JJ	.	.	.	.	.	.	.	.	.	.	.	.	.	.
!!LO:MO:ori
*	*	*	*	*rep	*	*tremolo	*	*	*	*	*	*	*	*	*	*	*	*tremolo	*	*	*
8G#X\L	.	8g#X\L	.	16e/LL	.	16ee/LL	16dd\LL	.	8G#X\L	-scen-	4B\	-tem	4e\	-tem	4dd\	-tem	2ee\	8ee\L	2b\	2ee\	.
.	.	.	.	16b/	.	16ee/	16dd\	.	.	.	.	.	.	.	.	.	.	.	.	.	.
16B\L	.	16b\L	.	16e/	.	16ee/	16dd\	.	16B\L	.	.	.	.	.	.	.	.	8ee\	.	.	.
16A\JJ	.	16a\JJ	.	16b/	.	16ee/	16dd\	.	16A\JJ	.	.	.	.	.	.	.	.	.	.	.	.
8G#\L	.	8g#\L	.	16e/	.	16ee/	16dd\	.	8G#\	-dit	4B\	de-	4e\	des-	4dd\	des-	.	8ee\	.	.	.
.	.	.	.	16b/	.	16ee/	16dd\	.	.	.	.	.	.	.	.	.	.	.	.	.	.
8E\J	.	8g#\J	.	16e/	.	16ee/	16dd\	.	8E\	de	.	.	.	.	.	.	.	8ee\J	.	.	.
.	.	.	.	16b/JJ	.	16ee/JJ	16dd\JJ	.	.	.	.	.	.	.	.	.	.	.	.	.	.
*	*	*	*	*Xrep	*	*	*	*	*	*	*	*	*	*	*	*	*	*Xtremolo	*	*	*
!!LO:MO:mod
!! *	*	*	*	*rep	*	*tremolo	*	*	*	*	*	*	*	*	*	*	*tremolo	*tremolo	*	*	*
!! 8G#X\L	.	8g#X\L	.	16e/LL	.	16ee/LL	16dd\LL	.	8G#X\L	-scen-	4B\	-tem	4e\	-tem	4dd\	-tem	8eeL	8ee\L	2b\	2ee\	.
!! .	.	.	.	16b/	.	16ee/	16dd\	.	.	.	.	.	.	.	.	.	.	.	.	.	.
!! 16B\L	.	16b\L	.	16e/	.	16ee/	16dd\	.	16B\L	.	.	.	.	.	.	.	8ee	8ee\	.	.	.
!! 16A\JJ	.	16a\JJ	.	16b/	.	16ee/	16dd\	.	16A\JJ	.	.	.	.	.	.	.	.	.	.	.	.
!! 8G#\L	.	8g#\L	.	16e/	.	16ee/	16dd\	.	8G#\	-dit	4B\	de-	4e\	des-	4dd\	des-	8ee	8ee\	.	.	.
!! .	.	.	.	16b/	.	16ee/	16dd\	.	.	.	.	.	.	.	.	.	.	.	.	.	.
!! 8E\J	.	8g#\J	.	16e/	.	16ee/	16dd\	.	8E\	de	.	.	.	.	.	.	8eeJ	8ee\J	.	.	.
!! .	.	.	.	16b/JJ	.	16ee/JJ	16dd\JJ	.	.	.	.	.	.	.	.	.	.	.	.	.	.
!! *	*	*	*	*Xrep	*	*	*	*	*	*	*	*	*	*	*	*	*Xtremolo	*Xtremolo	*	*	*
!!LO:MO:end
*	*	*	*	*	*	*v	*v	*	*	*	*	*	*	*	*	*	*	*	*	*	*
!LO:LB:g=original	!	!	!	!LO:LB:g=original	!	!LO:LB:g=original	!	!	!	!	!	!	!	!	!	!	!	!LO:LB:g=original	!	!
=32	=32	=32	=32	=32	=32	=32	=32	=32	=32	=32	=32	=32	=32	=32	=32	=32	=32	=32	=32	=32
!	!	!	!	!	!	!	!	!	!LO:MO:mod=cae-	!	!	!	!	!	!	!	!	!	!	!
8A\L	.	8a\L	.	16e/LL	.	16ee\LL	.	4A\	Cae-	4c#\	-scen-	4e\	-cen-	4cc#\	-cen-	4a/	4ee\	2cc#\	2ee\	1ryy
.	.	.	.	16cc#/	.	16ee\	.	.	.	.	.	.	.	.	.	.	.	.	.	.
16c#\L	.	16cc#\L	.	16e/	.	16ee\	.	.	.	.	.	.	.	.	.	.	.	.	.	.
16B\JJ	.	16b\JJ	.	16cc#/	.	16ee\	.	.	.	.	.	.	.	.	.	.	.	.	.	.
8A\L	.	8a\L	.	16e/	.	16ee\	.	8A\	-lis	8c#\	-dit	8e\	-dit	8cc#\	-dit	4r	4r	.	.	.
.	.	.	.	16cc#/	.	16ee\	.	.	.	.	.	.	.	.	.	.	.	.	.	.
8c#\J	.	8a\J	.	16e/	.	16ee\	.	8A\	des-	8c#\	de	8e\	de	8ee\	de	.	.	.	.	.
.	.	.	.	16cc#/JJ	.	16ee\JJ	.	.	.	.	.	.	.	.	.	.	.	.	.	.
!	!	!	!	!	!	!	!	!LO:MO:mod=*null:null	!	!	!	!	!	!	!	!	!	!	!	!
*	*	*	*	*	*	*	*	*2\right	*	*	*	*	*	*	*	*tremolo	*tremolo	*	*	*
!	!	!	!	!	!	!	!	!	!	!	!LO:MO:mod=cae-	!	!LO:MO:mod=cae-	!	!LO:MO:mod=cae-	!	!	!	!	!
8A#X\L	.	8a#X\L	.	16f#/LL	.	16ee 16f#\LL	.	2A#X\	-cen-	2c#\	Cae-	2f#\	Cae-	2ee\	Cae-	8f#/L	8ff#\L	2cc#\	2ee\	.
.	.	.	.	16cc#/	.	16ee 16f#\	.	.	.	.	.	.	.	.	.	.	.	.	.	.
16c#\L	.	16cc#\L	.	16f#/	.	16ee 16f#\	.	.	.	.	.	.	.	.	.	8f#/	8ff#\	.	.	.
16B\JJ	.	16b\JJ	.	16cc#/	.	16ee 16f#\	.	.	.	.	.	.	.	.	.	.	.	.	.	.
8A#\L	.	8a#\L	.	16f#/	.	16ee 16f#\	.	.	.	.	.	.	.	.	.	8f#/	8ff#\	.	.	.
.	.	.	.	16cc#/	.	16ee 16f#\	.	.	.	.	.	.	.	.	.	.	.	.	.	.
8F#\J	.	8f#\J	.	16f#/	.	16ee 16f#\	.	.	.	.	.	.	.	.	.	8f#/J	8ff#\J	.	.	.
.	.	.	.	16cc#/JJ	.	16ee 16f#\JJ	.	.	.	.	.	.	.	.	.	.	.	.	.	.
*	*	*	*	*	*	*Xtremolo	*	*	*	*	*	*	*	*	*	*Xtremolo	*Xtremolo	*	*	*
=33	=33	=33	=33	=33	=33	=33	=33	=33	=33	=33	=33	=33	=33	=33	=33	=33	=33	=33	=33	=33
!	!	!	!	!LO:MO:mod=*null:null	!	!	!	!	!	!	!	!	!	!	!	!	!	!	!	!
*	*	*	*	*2\right	*	*	*	*	*	*	*	*	*	*	*	*	*	*	*	*
!	!	!LO:TX:t=P:problem=mixed beam:mod=	!	!	!	!	!	!	!	!	!	!	!	!	!	!	!	!	!	!
8B\L	.	8b\L	.	16dd\LL	.	16dd\KL	.	4B\	-dit	4d\	-lis	4f#\	-lis	4dd\	-lis	8f#/	8ff#\	4b\	4dd\	1ryy
.	.	.	.	16dd\	.	8dd\	.	.	.	.	.	.	.	.	.	.	.	.	.	.
16d\L	.	8B/J	.	16dd\	.	.	.	.	.	.	.	.	.	.	.	8r	8r	.	.	.
16c#\JJ	.	.	.	16dd\	.	8dd\	.	.	.	.	.	.	.	.	.	.	.	.	.	.
8B\L	.	8r	.	16dd\	.	.	.	8r	.	8r	.	8r	.	8r	.	4r	4r	8r	8r	.
*	*	*	*	*	*	*	*	*	*ij	*	*	*	*ij	*	*	*	*	*	*	*
.	.	.	.	16dd\	.	8gg\	.	.	.	.	.	.	.	.	.	.	.	.	.	.
8B\J	.	8B/	.	16dd\	.	.	.	8B\	des-	8B\	des-	8g\	des-	8dd\	des-	.	.	8dd\	8gg\	.
.	.	.	.	16dd\JJ	.	16gg\Jk	.	.	.	.	.	.	.	.	.	.	.	.	.	.
*	*	*	*	*	*	*	*	*	*	*	*	*	*	*	*	*tremolo	*tremolo	*	*	*
!	!	!LO:LB:g=original	!	!	!	!	!	!	!	!	!	!	!	!	!	!	!	!	!	!
8c#\L	.	8c#/L	.	16a\LL	.	16ggKL 16a\	.	2c#\	-cen-	2A\	-cen-	2g\	-cen-	2ee\	-cen-	8a/L	8ee\L	2ee\	2gg\	.
.	.	.	.	16ee\	.	8gg 8a\	.	.	.	.	.	.	.	.	.	.	.	.	.	.
16e\L	.	16A/L	.	16a\	.	.	.	.	.	.	.	.	.	.	.	8a/	8ee\	.	.	.
16d\JJ	.	16B/JJ	.	16ee\	.	8gg 8a\	.	.	.	.	.	.	.	.	.	.	.	.	.	.
8c#\L	.	8c#/L	.	16a\	.	.	.	.	.	.	.	.	.	.	.	8a/	8ee\	.	.	.
.	.	.	.	16ee\	.	8gg 8a\	.	.	.	.	.	.	.	.	.	.	.	.	.	.
8A\J	.	8A/J	.	16a\	.	.	.	.	.	.	.	.	.	.	.	8a/J	8ee\J	.	.	.
.	.	.	.	16ee\JJ	.	16ggJk 16a\	.	.	.	.	.	.	.	.	.	.	.	.	.	.
*	*	*	*	*	*	*	*	*	*	*	*	*	*	*	*	*Xtremolo	*	*	*	*
!	!	!	!	!	!	!	!	!	!	!	!	!	!	!	!	!	!LO:LB:g=original	!	!	!
=34	=34	=34	=34	=34	=34	=34	=34	=34	=34	=34	=34	=34	=34	=34	=34	=34	=34	=34	=34	=34
!!LO:MO:ori
*	*	*tremolo	*	*	*	*	*	*	*	*	*	*	*	*	*	*	*	*	*	*
8D\L	.	8d\L	.	16f#/LL	.	16ff#\LL	.	4d\	-dit	4A\	-dit	4f#\	-dit	4ff#\	-dit	2dd\	8ff#\L	2dd\	2ff#\	1ryy
.	.	.	.	16a/	.	16ddd\	.	.	.	.	.	.	.	.	.	.	.	.	.	.
8F#\J	.	8d\	.	16f#/	.	16dd\	.	.	.	.	.	.	.	.	.	.	8ff#\	.	.	.
.	.	.	.	16a/	.	16dd\JJ	.	.	.	.	.	.	.	.	.	.	.	.	.	.
8r	.	8d\	.	16f#/	.	16dd\LL	.	8r	.	8r	.	8r	.	8r	.	.	8ff#\	.	.	.
.	.	.	.	16a/	.	16ff#\	.	.	.	.	.	.	.	.	.	.	.	.	.	.
!	!	!	!	!	!	!	!	!	!	!	!LO:MO:mod=*null:null	!	!	!	!	!	!	!	!	!
*	*	*	*	*	*	*	*	*	*Xij	*	*ij	*	*Xij	*	*	*	*	*	*	*
!	!	!	!	!	!	!	!	!	!	!	!LO:MO:mod=de	!	!	!	!	!	!	!	!	!
8D\	.	8d\J	.	16f#/	.	16ff#\	.	8D/	de	8d\	des-	8a\	de	8ff#\	de	.	8ff#\J	.	.	.
.	.	.	.	16a/JJ	.	16aa\JJ	.	.	.	.	.	.	.	.	.	.	.	.	.	.
*	*	*	*	*	*	*	*	*	*	*	*	*	*	*	*	*tremolo	*	*	*	*
!!LO:MO:mod
!! *	*	*tremolo	*	*	*	*	*	*	*	*	*	*	*	*	*	*tremolo	*	*	*	*
!! 8D\L	.	8d\L	.	16f#/LL	.	16ff#\LL	.	4d\	-dit	4A\	-dit	4f#\	-dit	4ff#\	-dit	8ddL	8ff#\L	2dd\	2ff#\	1ryy
!! .	.	.	.	16a/	.	16ddd\	.	.	.	.	.	.	.	.	.	.	.	.	.	.
!! 8F#\J	.	8d\	.	16f#/	.	16dd\	.	.	.	.	.	.	.	.	.	8dd	8ff#\	.	.	.
!! .	.	.	.	16a/	.	16dd\JJ	.	.	.	.	.	.	.	.	.	.	.	.	.	.
!! 8r	.	8d\	.	16f#/	.	16dd\LL	.	8r	.	8r	.	8r	.	8r	.	8dd	8ff#\	.	.	.
!! .	.	.	.	16a/	.	16ff#\	.	.	.	.	.	.	.	.	.	.	.	.	.	.
!! !	!	!	!	!	!	!	!	!	!	!	!LO:MO:mod=*null:null	!	!	!	!	!	!	!	!	!
!! *	*	*	*	*	*	*	*	*	*Xij	*	*ij	*	*Xij	*	*	*	*	*	*	*
!! !	!	!	!	!	!	!	!	!	!	!	!LO:MO:mod=de	!	!	!	!	!	!	!	!	!
!! 8D\	.	8d\J	.	16f#/	.	16ff#\	.	8D/	de	8d\	des-	8a\	de	8ff#\	de	8ddJ	8ff#\J	.	.	.
!! .	.	.	.	16a/JJ	.	16aa\JJ	.	.	.	.	.	.	.	.	.	.	.	.	.	.
!!LO:MO:end
!	!	!	!	!	!	!	!	!	!LO:MO:mod=cae-	!	!LO:MO:mod=cae-	!	!LO:MO:mod=cae-	!	!LO:MO:mod=cae-	!	!	!	!	!
8C#/L	.	8c#\L	.	16e/LL	.	16ggKL 16a\	.	2C#/	Cae-	2e\	-cen-	2a\	Cae-	2ee\	Cae-	8a/L	8ee\L	2ee\	2gg\	.
.	.	.	.	16a/	.	8gg 8a\	.	.	.	.	.	.	.	.	.	.	.	.	.	.
8E/	.	8c#\	.	16e/	.	.	.	.	.	.	.	.	.	.	.	8a/	8ee\	.	.	.
.	.	.	.	16a/	.	8gg 8a\	.	.	.	.	.	.	.	.	.	.	.	.	.	.
8AA/	.	8c#\	.	16e/	.	.	.	.	.	.	.	.	.	.	.	8a/	8ee\	.	.	.
.	.	.	.	16a/	.	8gg 8a\	.	.	.	.	.	.	.	.	.	.	.	.	.	.
8C#/J	.	8c#\J	.	16e/	.	.	.	.	.	.	.	.	.	.	.	8a/J	8ee\J	.	.	.
.	.	.	.	16a/JJ	.	16ggJk 16a\	.	.	.	.	.	.	.	.	.	.	.	.	.	.
!	!	!	!	!	!	!	!	!	!	!	!	!	!	!	!	!LO:MO:mod=*null:null	!	!	!	!
*	*	*	*	*	*	*	*	*	*	*	*	*	*	*	*	*Xtremolo	*	*	*	*
!	!	!	!	!	!	!	!	!	!	!	!	!LO:LB:g=original	!	!	!	!	!	!	!	!
=35	=35	=35	=35	=35	=35	=35	=35	=35	=35	=35	=35	=35	=35	=35	=35	=35	=35	=35	=35	=35
!	!	!	!	!	!	!	!	!	!	!	!LO:MO:mod=-lis	!	!	!	!	!	!	!	!	!
!!LO:MO:ori
8D\L	.	8d\L	.	16f#/LL	.	16ff#\LL	.	4D/	-lis	4d\	-dit	4a\	-lis	4ff#\	-lis	2dd\	8ff#\L	2dd\	2ff#\	1ryy
.	.	.	.	16a/	.	16ddd\	.	.	.	.	.	.	.	.	.	.	.	.	.	.
8F#\J	.	8d\	.	16f#/	.	16dd\	.	.	.	.	.	.	.	.	.	.	8ff#\	.	.	.
.	.	.	.	16a/	.	16dd\JJ	.	.	.	.	.	.	.	.	.	.	.	.	.	.
8r	.	8d\	.	16f#/	.	16dd\LL	.	8r	.	8r	.	8r	.	8r	.	.	8ff#\	.	.	.
.	.	.	.	16a/	.	16ff#\	.	.	.	.	.	.	.	.	.	.	.	.	.	.
*	*	*	*	*	*	*	*	*	*	*	*Xij	*	*	*	*	*	*	*	*	*
8D\	.	8d\J	.	16f#/	.	16ff#\	.	8d\	de-	8d\	de	8a\	de	8ff#\	de	.	8ff#\J	.	.	.
.	.	.	.	16a/JJ	.	16aa\JJ	.	.	.	.	.	.	.	.	.	.	.	.	.	.
*	*	*	*	*	*	*	*	*	*	*	*	*	*	*	*	*tremolo	*	*	*	*
!!LO:MO:mod
!! 8D\L	.	8d\L	.	16f#/LL	.	16ff#\LL	.	4D/	-lis	4d\	-dit	4a\	-lis	4ff#\	-lis	8ddL	8ff#\L	2dd\	2ff#\	1ryy
!! .	.	.	.	16a/	.	16ddd\	.	.	.	.	.	.	.	.	.	.	.	.	.	.
!! 8F#\J	.	8d\	.	16f#/	.	16dd\	.	.	.	.	.	.	.	.	.	8dd	8ff#\	.	.	.
!! .	.	.	.	16a/	.	16dd\JJ	.	.	.	.	.	.	.	.	.	.	.	.	.	.
!! 8r	.	8d\	.	16f#/	.	16dd\LL	.	8r	.	8r	.	8r	.	8r	.	8dd	8ff#\	.	.	.
!! .	.	.	.	16a/	.	16ff#\	.	.	.	.	.	.	.	.	.	.	.	.	.	.
!! *	*	*	*	*	*	*	*	*	*	*	*Xij	*	*	*	*	*	*	*	*	*
!! 8D\	.	8d\J	.	16f#/	.	16ff#\	.	8d\	de-	8d\	de	8a\	de	8ff#\	de	8ddJ	8ff#\J	.	.	.
!! .	.	.	.	16a/JJ	.	16aa\JJ	.	.	.	.	.	.	.	.	.	.	.	.	.	.
!!LO:MO:end
!LO:TX:t=P:problem=mixed beam:mod=	!	!	!	!	!	!	!	!LO:LB:g=original	!	!	!LO:MO:mod=cae-	!	!LO:MO:mod=cae-	!	!LO:MO:mod=cae-	!	!	!	!	!
8C#\L	.	8c#\L	.	16e/LL	.	16ggKL 16a\	.	8e\L	-scen-	2e\	Cae-	2a\	Cae-	2ee\	Cae-	8a/L	8ee\L	2ee\	2gg\	.
.	.	.	.	16a/	.	8gg 8a\	.	.	.	.	.	.	.	.	.	.	.	.	.	.
8E\	.	8c#\	.	16e/	.	.	.	8c#\	.	.	.	.	.	.	.	8a/	8ee\	.	.	.
.	.	.	.	16a/	.	8gg 8a\	.	.	.	.	.	.	.	.	.	.	.	.	.	.
8AA/	.	8c#\	.	16e/	.	.	.	8B\	.	.	.	.	.	.	.	8a/	8ee\	.	.	.
.	.	.	.	16a/	.	8gg 8a\	.	.	.	.	.	.	.	.	.	.	.	.	.	.
8C#/J	.	8c#\J	.	16e/	.	.	.	8c#\J	.	.	.	.	.	.	.	8a/J	8ee\J	.	.	.
.	.	.	.	16a/JJ	.	16ggJk 16a\	.	.	.	.	.	.	.	.	.	.	.	.	.	.
*	*	*Xtremolo	*	*Xtremolo	*	*	*	*	*	*	*	*	*	*	*	*Xtremolo	*Xtremolo	*	*	*
!	!	!	!	!	!	!LO:LB:g=original	!	!	!	!LO:LB:g=original	!	!	!	!LO:LB:g=original	!	!	!	!	!	!
=36	=36	=36	=36	=36	=36	=36	=36	=36	=36	=36	=36	=36	=36	=36	=36	=36	=36	=36	=36	=36
!	!	!	!	!LO:TX:t=P:problem=mixed beam:mod=	!	!	!	!	!	!	!	!	!	!	!	!	!	!	!	!
8D\L	.	8d\L	.	8f#/L	.	16ff#\LL	.	8d\	-dit	8d\	-lis	8a\	-lis	8ff#\	-lis	4dd\	4ff#\	4.dd\	4.ff#\	1ryy
.	.	.	.	.	.	16ddd\	.	.	.	.	.	.	.	.	.	.	.	.	.	.
8B\	.	8B\	.	8ff#\	.	16ff#\	.	8B\	des-	8d\	de-	8b\	des-	8ff#\	des-	.	.	.	.	.
.	.	.	.	.	.	16ddd\JJ	.	.	.	.	.	.	.	.	.	.	.	.	.	.
8G\	.	8B\	.	8ee\	.	16ee\LL	.	8G\L	-cen-	8d\L	-scen-	8b\L	-cen-	4ee\	-cen-	8r	8r	.	.	.
.	.	.	.	.	.	16ddd\	.	.	.	.	.	.	.	.	.	.	.	.	.	.
8A\J	.	8A\J	.	8ee\J	.	16ee\	.	8A\J	.	8c#\J	.	8a\J	.	.	.	8a/	8ee\	8cc#\	8ee\	.
.	.	.	.	.	.	16ccc#\JJ	.	.	.	.	.	.	.	.	.	.	.	.	.	.
8d\L	.	8A\L	.	8ff#\L	.	16ff#\LL	.	8d\	-dit	8d\	-dit	8a\	-dit	8ff#\	-dit	4dd\	4ff#\	4.dd\	4.ff#\	.
.	.	.	.	.	.	16ddd\	.	.	.	.	.	.	.	.	.	.	.	.	.	.
8B\	.	8B\	.	8ff#\	.	16ff#\	.	8B\	de	8d\	de	8b\	de	8ff#\	de	.	.	.	.	.
.	.	.	.	.	.	16ddd\JJ	.	.	.	.	.	.	.	.	.	.	.	.	.	.
!LO:SIC:s=8G	!	!	!	!	!	!	!	!	!LO:MO:mod=cae-	!	!LO:MO:mod=cae-	!	!LO:MO:mod=cae-	!	!LO:MO:mod=cae-	!	!	!	!	!
8Gn\	.	8B\	.	8ee\	.	16ee\LL	.	8G\L	Cae-	8d\L	Cae-	8b\L	Cae-	4ee\	Cae-	8r	8r	.	.	.
.	.	.	.	.	.	16ddd\	.	.	.	.	.	.	.	.	.	.	.	.	.	.
8A\J	.	8A\J	.	8ee\J	.	16ee\	.	8A\J	.	8c#\J	.	8a\J	.	.	.	8a/	8ee\	8cc#\	8ee\	.
.	.	.	.	.	.	16ccc#\JJ	.	.	.	.	.	.	.	.	.	.	.	.	.	.
!	!	!	!	!	!	!	!	!	!	!	!	!	!	!	!	!LO:LB:g=original	!	!	!	!
=37	=37	=37	=37	=37	=37	=37	=37	=37	=37	=37	=37	=37	=37	=37	=37	=37	=37	=37	=37	=37
!	!	!	!	!LO:TX:t=P:problem=mixed beam:mod=	!	!	!	!	!	!	!	!	!	!	!	!	!	!	!	!
8D\L	.	8A\L	.	8ff#\L	.	8ddd\L	.	8D\	-lis.	8d\	-lis.	8a\	-lis.	8ff#\	-lis.	8f#/L	8dd\L	8dd\L	8ff#\L	1ryy
8D\	.	8f# 8A\	.	8f#/	.	8ddd 8dd\	.	8r	.	8r	.	8r	.	8r	.	8f#/	8dd\	8dd\	8ff#\	.
8D\J	.	8f#J 8A\	.	8f#/J	.	8dddJ 8dd\	.	4r	.	4r	.	4r	.	4r	.	8f#/J	8dd\J	8dd\J	8ff#\J	.
8r	.	8r	.	8r	.	8r	.	.	.	.	.	.	.	.	.	8r	8r	8r	8r	.
2r	.	2r	.	2r	.	2r	.	2r	.	2r	.	2r	.	2r	.	2r	2r	2r	2r	.
==	==	==	==	==	==	==	==	==	==	==	==	==	==	==	==	==	==	==	==	==
*-	*-	*-	*-	*-	*-	*-	*-	*-	*-	*-	*-	*-	*-	*-	*-	*-	*-	*-	*-	*-
!!!system-decoration: [(g1)][(g2)][(g3)][(g4)]<s13>
!!!RDF**kern: | = vertical stroke
!!!filter-modern: shed -X dynam -e "s/:a/:A/LX" | sic -sq | modori -m | autostem -r | tie -s | humtr -p | shed -e "s/yy//" | shed -e "s/^(X?)rep$/$1REP/I"
!!!ENC: Mateusz Solarz
!!!END: 2020-09-24
!!!EED: Kamil Watkowski
!!!EEV: 2022-02-06
!!!ENC-modern: Andrzej Kubiczek
!!!END-modern: 2022-06-12
